RSIITR/Dolores/Input data/train.csv
,index,id,theta1,theta2,theta3,theta4,theta5,theta6,thetad1,thetad2,thetad3,thetad4,thetad5,thetad6,tau1,tau2,tau3,tau4,tau5,dm1,dm2,dm3,dm4,dm5,da1,da2,da3,da4,da5,db1,db2,db3,db4,db5,target
0,6633,6633,1.258654859,-0.929409535,-0.050415367,1.607280211,-1.666597083,-0.562623323,-2.119563691,2.811831128,1.187247808,-0.28028324,-2.319507291,-2.038873394,-53.56488883,-68.61293067,41.04798215,-48.55115652,-39.71611454,0.597408743,2.790619372,0.657922976,-0.098849923,2.588031962,2.923101762,1.900982399,2.847008247,1.694073299,2.655953237,2.560638509,0.539490908,1.198796281,1.102963528,2.200706618,-0.260065226
1,3767,3767,-0.37838641,1.898101631,0.13737576,-2.138863533,0.37656691,-0.470433165,-0.128412334,2.4229571,0.099426366,1.464426192,1.07327568,-0.289730595,1.866959721,-48.05189067,-45.44166045,-11.77988565,-11.04576329,0.833312989,1.211212973,1.263079319,2.147579436,1.540373247,0.560584652,2.12790027,0.941830994,1.008708214,2.117702011,0.880092007,0.536593308,1.338948851,1.78053419,1.236616921,-0.204540199
2,1224,1224,-0.611485387,0.900390763,-0.263778805,0.021346499,2.09776964,0.952058111,0.991799109,-0.357289954,-2.077107187,0.863808661,-0.705093298,0.276719943,-38.84482539,-64.5424803,-43.31473197,-59.20676209,47.31818504,0.913952444,1.046076136,0.628605802,2.484230836,2.430639094,3.046672179,1.815470797,0.900659166,0.70372394,2.219781384,2.447250486,1.239661469,1.288069824,2.462065981,2.240620177,0.559202236
3,3273,3273,2.217916691,1.709197055,2.421718439,0.363645276,2.080354644,-0.869140624,2.061683142,0.293323807,-0.419035674,1.459496946,-0.751150641,2.413695313,-50.08691304,17.5002362,-4.291153734,-58.06019328,29.48094772,2.404851165,0.783482285,1.013806173,2.49529642,1.677704058,1.87993564,2.618496212,2.458994561,0.537412134,2.60285175,2.632219339,0.755636677,2.973980249,2.851320806,1.0287815,-0.342737522
4,4446,4446,-2.380333838,-1.426494434,-1.665379769,-1.018660082,2.080026201,3.152885683,0.557293039,0.058470951,-0.058548694,-1.015757512,1.010205212,-0.079878424,-21.14860577,-45.0366649,-72.55411697,65.17533179,-55.48097971,1.164273932,2.830625426,1.013827642,1.946145385,2.150016555,1.202644383,1.527161039,1.470629664,1.060352505,0.446625627,2.519833286,1.992571455,1.263568523,0.810387136,1.646483342,-0.703349668
5,5298,5298,-0.108823691,-0.756849649,-0.466919773,1.806821172,-0.119737818,1.275026271,1.036144867,-3.141184217,-0.408056107,-1.849265066,0.764672142,-1.584278967,67.45783413,-10.36421945,33.28618593,-30.3089004,48.4654977,1.047477572,0.862906183,2.707330101,1.876410634,1.714031926,1.204414985,0.813538418,2.049299171,1.379370551,1.339836498,1.610668443,1.560941628,3.254428541,2.552335118,1.405806142,0.290087722
6,1591,1591,1.627056209,-1.381887271,1.032081329,2.509536224,1.740332359,1.250980103,1.666795693,1.958038918,0.25847003,1.701807873,1.606700434,-0.406559735,48.90392452,55.20020002,-14.05831087,-38.47169592,-68.05709387,1.086869059,0.354915117,1.834650647,2.128840837,1.525551583,2.463098201,-0.538937064,3.220894846,1.326712132,3.100595908,0.166196473,1.745597043,3.179944765,1.459080935,1.469674585,0.317497496
7,5750,5750,0.350848358,0.68326754,0.299181025,1.003307518,2.542536262,1.247963816,-0.394901002,1.137262569,1.574611731,0.076732402,-1.618579223,-0.423254597,44.86021189,36.3954171,55.085432,29.31803281,17.38860381,1.363070881,1.906695497,1.772265581,1.900393811,1.610714407,1.796251965,1.556434992,0.616779634,1.920085252,0.607499376,1.878476501,1.063539961,1.124363824,0.625342826,0.316093524,0.448330912
8,1376,1376,1.843095123,1.38273212,2.704128031,2.017179107,0.373976459,0.95553571,1.702311641,-1.184138318,-2.30292076,0.370766773,-1.523427422,0.996676058,-41.95139845,15.24401373,-24.98182897,-63.87479564,37.07527734,1.909236078,1.827693918,0.080322455,1.033731774,1.946511589,1.87860666,0.446454798,1.135861781,0.936426994,2.235144202,0.471409601,0.400191755,0.946924458,3.057765528,1.910372529,0.530579583
9,3785,3785,0.241998534,-1.343689044,-0.16829724,0.536264107,0.77085025,1.544289351,1.412347789,-1.454623993,1.374764323,2.089461665,-1.276582516,2.629013002,-12.54004639,-64.93383558,25.55771224,42.66971967,-19.46356771,1.577428175,-0.05551889,1.822927715,1.862021494,1.013875493,2.020565472,2.734771757,3.118603411,2.030917046,1.279771578,1.012039538,0.421766039,1.812764332,1.63886018,2.516673822,0.607716541
10,8069,8069,1.773005716,1.666798085,0.750566682,2.823889262,-1.336922365,0.044249857,0.497518869,-0.136736442,-2.242707986,-0.378552873,2.231459806,1.189885738,44.13946623,-49.9263967,28.69840603,46.11167562,59.8983883,0.756902955,2.232192101,1.233929128,1.939091965,1.072994916,1.652653756,2.387541782,1.065409566,0.292187774,3.265266659,2.255716416,2.214735682,3.777713508,1.118972961,1.536619823,0.677902559
11,7550,7550,-0.108985498,0.451723615,-1.27549023,-0.747800082,-1.086642546,0.947945646,-1.733758857,0.110651358,1.862672066,1.336846708,0.612930105,1.468325771,-4.536494136,-73.70348462,-37.91880848,8.171973786,66.58465632,1.937465904,2.382848034,2.789845435,3.380734079,1.260755819,1.386431203,1.372439966,1.363812496,0.62050108,0.23461222,0.41771799,2.44924901,2.255440282,1.047046359,2.088938314,-0.000283231
12,6162,6162,1.897627674,-1.849287928,-0.908761436,-1.768846598,1.654555528,0.187274729,1.746583298,0.624105046,-0.497198075,1.279285435,2.839199754,-2.850621785,-33.75864693,36.10316377,48.81265922,-11.88677786,49.08470819,0.988268306,1.109457469,0.532308018,1.539109583,2.220287715,2.777794387,0.799517972,0.740426129,1.506194834,2.188785901,3.531762016,2.846666513,1.096747379,1.889225273,2.471561259,0.452937545
13,4741,4741,-1.103254693,2.051840701,1.2255861,1.638285835,-0.995205743,2.573459431,0.481310799,1.025078672,0.174601705,1.682892716,0.818213619,-1.658260727,-29.28763859,33.41382357,-26.06916365,69.77241886,54.31406479,1.666979574,2.557709913,2.054176433,1.93451152,1.395580449,2.121045773,2.019165602,2.584125081,2.043827088,1.631255126,1.223558897,2.535710789,1.130351289,2.37130713,2.428281597,1.31060852
14,7429,7429,2.185063258,-1.499339512,1.211359792,-1.838741635,2.267539439,-1.461705353,1.287934965,0.233953116,1.100110211,-2.344207709,0.717681291,2.031399339,3.146763168,18.29919081,9.049926338,19.25141079,74.11385831,0.59712918,1.177473267,0.950941803,1.214742069,0.419126374,1.371975606,1.252370932,1.851726342,1.656814154,2.381737079,1.055014132,1.37753946,2.550516814,2.120887634,2.577353611,0.878109877
15,8155,8155,2.107512076,2.06172333,0.844285249,1.241979861,-1.079219981,1.1411109,1.983761732,2.51453429,-1.408173435,-0.646973787,-0.545999319,-0.648569747,56.99188294,13.02978211,-73.95300844,-61.67584809,-66.21858473,0.066545115,1.23933467,2.044038799,2.06682983,2.798203738,1.25218968,1.343628563,0.727084042,2.895830908,0.762095941,-0.077400435,1.044946537,1.433763273,0.969277181,3.274033935,1.063544927
16,234,234,1.11154094,-1.019168603,1.929378048,2.717858047,2.027522924,-0.530001873,-1.226126087,-1.957725945,-0.423100934,1.714946151,-0.075222344,0.335838249,70.35894583,-26.53275261,-25.16772554,59.28322433,-7.711053489,2.447360216,2.120756631,2.583584014,0.719091935,1.225705778,2.326301351,2.429342622,1.046288499,2.482799013,1.662155954,0.62474345,3.648545644,2.2243426,2.388099685,1.210386798,-0.297407904
17,5327,5327,1.51526726,0.558052102,-0.081389309,1.114275888,-2.033808931,1.751498701,-0.430609018,-0.636641019,-1.629710696,0.764556975,-0.822772993,0.836727841,-34.94116772,-20.34017591,17.38184164,-7.934763616,-2.781329357,1.743251374,0.827187202,1.766404475,0.352112556,0.502971776,1.539523161,1.282650797,0.709149304,1.492308894,1.245011118,1.973498374,1.97579087,1.423878111,0.362709209,1.3410231,-0.010795486
18,7725,7725,1.180090006,0.868562637,-1.880545603,2.481178731,1.700257571,-1.456945095,0.81364581,-0.593040935,-0.933662863,-0.737712453,-0.071843043,-1.096886973,-55.42560661,5.238563258,-38.4088931,16.36705347,32.71901773,1.760086473,1.743129655,4.362152989,1.015056997,0.867220372,2.579815258,0.540652007,2.608969839,2.354657075,1.218429014,0.880843786,1.382092358,2.113994565,1.513017882,1.621377535,0.623091465
19,879,879,2.091796195,-1.479936457,2.374916049,1.807799026,-0.581745152,0.545552828,-0.950303137,0.312341421,-1.570383387,-0.965098336,1.619917634,1.69836369,55.25943768,58.95360297,1.47821991,-61.56429903,36.22179131,0.829903671,1.887298311,1.888440827,2.211562415,0.6834555,1.617218782,1.653375683,1.383052708,0.597851359,1.200548769,2.93840098,2.017668619,1.655601135,2.088483044,2.673296526,0.327127224
20,3439,3439,-1.808339375,-1.468942489,0.429142352,0.320546844,1.800987659,0.370865085,-2.115266662,0.116087579,3.007767671,2.281360593,0.88108811,-1.419405974,17.59296457,-51.10098723,58.05161414,43.70964452,-12.12440977,2.798865904,1.806267294,0.612013856,0.986044241,0.528261429,2.002799665,1.488859875,1.966092135,2.734044096,2.488709512,2.134547371,1.511467113,1.899073157,0.7427837,1.100346687,-0.019874859
21,7930,7930,1.350007834,3.143239554,1.776291852,-1.806127863,2.729307277,-0.373617719,1.427789585,0.610194802,1.788951772,0.083960263,-1.512038301,3.107600547,-24.31555122,9.667581628,21.98106243,-51.65724285,-14.60112774,1.4903513,1.504064106,2.285143754,1.722783067,2.893896363,2.359862417,2.6674682,1.150476118,1.113658096,2.883937132,1.453834343,1.560529648,1.761468306,1.20984858,0.440309465,0.805607557
22,7712,7712,-1.464883965,1.991505103,-1.034243438,1.779708789,1.511542921,1.04325087,-0.780794881,-1.842114647,2.638947558,2.628870694,0.288847272,-0.838967982,-13.05669687,-39.63397607,32.81036026,-44.45600407,-17.52981915,2.222972082,1.97210236,1.614278884,1.745652781,1.572925952,1.935232688,0.432508539,1.626329058,2.849552549,1.383591758,1.260318346,1.710430915,2.655260908,0.190260426,-0.121774495,-0.207907348
23,746,746,-3.648469752,2.712716975,-1.39309269,-2.273211687,2.268273553,-0.757482387,-0.753905513,1.375598547,-0.057731694,2.091331985,-2.445720788,-0.212286161,-5.429796729,-12.88795101,-44.49165104,-6.464417895,-69.26106664,0.736186628,2.752073163,1.735409007,1.0487906,2.385866162,1.112981731,0.69497346,0.025444812,1.368938573,2.039421697,2.786110109,2.334371025,0.466298375,1.303302066,1.336595544,0.069828639
24,2456,2456,0.544085684,-0.171549779,0.92457804,-0.498777981,1.98369058,-0.216725151,2.555871276,1.164336485,-1.379678482,1.0781001,2.095326034,-1.917308556,-41.20398117,26.03568553,16.52739107,-73.5097324,56.4842221,0.902651233,2.286579556,2.803837864,2.057161513,0.456101433,2.062084174,1.301641973,1.69396117,1.066516025,3.447369518,1.325805988,1.92658883,-0.036379121,1.751963598,-0.143837466,1.385128034
25,5395,5395,-1.494939152,-2.203461337,0.057659964,1.481348518,-2.592358786,0.532405561,2.247137928,-1.815094858,0.307535781,1.555810204,-1.027482503,-1.982940413,-45.99622934,-49.08990905,37.52450317,22.48749497,4.888514278,1.444749051,1.525014707,2.923359814,0.510897441,0.469014756,3.065585522,1.204389978,1.835486276,1.629090125,1.451393698,0.964983273,0.735950488,1.522929652,1.00933042,2.016715799,0.168792496
26,3339,3339,1.683903646,-0.857523011,0.017904134,-0.027177528,1.709054114,-1.254708333,0.10381013,0.813826857,0.306840387,0.863818067,2.429225329,-1.08648877,-53.27460749,-15.91564391,20.79144955,11.35727977,-32.71049608,2.793622684,1.893757713,2.412652324,1.626605357,1.26532748,2.895221632,0.255101661,2.269399573,0.512337342,2.209716573,2.190772056,1.804185707,1.124704127,1.993572676,2.791749035,0.363640919
27,7806,7806,-0.285905833,2.412805228,0.526586772,2.835780309,-0.204416001,2.171906332,-1.178531288,-1.417671813,1.615537707,-1.473955949,-0.861885663,-1.370417705,72.05103288,-44.41385078,-45.13585597,-2.302146287,38.80820115,1.202436144,2.756611075,0.381804821,2.461070294,1.986590731,1.857242167,2.287811866,2.650602799,1.223280601,1.689149499,2.600864961,1.456071125,1.71637945,0.620148941,0.262594008,-0.026178053
28,338,338,-1.01215418,2.714552666,-1.413650875,-1.698546085,1.270971181,1.716675457,-0.294760781,0.759283297,0.244170243,2.427501651,1.774788597,0.20541183,54.33960506,-49.2006923,-66.8646474,75.39168276,6.97693151,1.532156356,1.766043559,0.788755545,0.835370784,2.215064664,2.029872898,1.86660332,2.064451563,1.362063835,1.27621825,1.60469044,1.949702713,1.844518104,0.659458527,1.277960971,0.439343332
29,1073,1073,0.433319659,0.80341843,2.167962065,-1.36517939,-2.647268729,-0.795580752,2.502400712,0.975346311,0.72992393,0.180580021,-0.279708041,0.991249351,54.86085323,-71.96663844,-45.35696455,-16.90820869,11.57509131,1.527648964,1.899257553,2.307202988,-0.457302074,1.021130224,2.654771404,1.459860168,2.676668845,-0.482141166,2.802725639,2.866752082,0.263061532,1.501912599,2.378469073,0.082617223,0.624127345
30,1403,1403,0.089523303,-0.615293183,0.530434539,1.346232887,-1.933247981,-1.653214047,-2.397067336,-2.428060267,1.559595715,-1.055297857,1.944176356,2.051670054,4.895223569,35.03335007,9.532895391,32.36601765,26.30108268,1.450330373,2.62240949,1.184174065,1.670157136,0.26323755,1.034779776,1.024644306,1.20452428,1.644225702,1.971305729,1.930815772,0.978292098,1.39329771,0.954806998,1.668619998,0.562637352
31,7923,7923,-1.520846965,-1.996734863,-0.68995962,0.493149774,2.013020197,2.084778515,-0.339567394,-0.874565247,1.921780658,1.908064531,-0.967732334,-0.569852582,-1.960358049,56.52582112,-74.19353119,60.83392887,-36.09937288,1.783948311,-0.510703805,1.399172007,1.252906722,0.540005404,1.233429286,2.274499975,2.732933355,1.404540989,1.55128503,1.352449703,0.600449682,0.782217138,2.940818385,2.074489271,0.717755506
32,2570,2570,0.09670082,0.274970159,-0.076477189,-1.669502636,1.658769023,0.313829477,0.934966323,1.883127355,0.758682505,-0.010012497,0.734756713,-0.301468679,-43.73698404,40.55292318,68.07499005,38.33304642,23.54797964,0.016488966,1.862043527,1.502435651,1.6721354,2.816754426,1.080878411,1.315865705,1.413313991,2.205072829,1.423706869,1.518238094,1.909376396,0.484452935,1.400302514,-0.299469953,0.249662327
33,1667,1667,2.595230597,0.397037908,-2.008957213,-1.052630145,1.711018057,-0.937551316,-0.686133181,0.557985749,-0.624208185,-0.773547779,2.585234273,-1.848962094,14.24527598,-3.945370132,3.984772483,28.29200422,-25.82088164,3.0272778,1.500789422,1.193292231,0.880353587,2.852720919,1.292854073,0.617722373,2.1644838,2.184710654,2.558830662,1.679062786,2.433580909,2.267103014,0.841862788,3.396477664,-0.159316328
34,1218,1218,2.563978334,2.250235123,-0.774642777,-1.982132957,-1.087883387,2.463371394,1.790374397,-2.023486618,-0.490339875,1.611101825,-1.833372053,1.279023607,-72.41268282,64.80300901,32.09714742,-37.44826551,-52.26495853,0.246563672,0.079258347,0.820432298,1.66934882,1.956981032,1.851915891,1.484436029,2.257011636,0.82353462,1.855497857,1.255492805,1.705302158,0.77755701,3.421748135,1.763296477,0.479343242
35,7540,7540,0.443428053,-1.224266516,-2.036323573,-1.904182782,0.708480249,-1.462639559,-2.446407036,-1.265115274,-0.571856758,-0.902878496,1.136311865,-1.453463727,-26.29030485,1.501399525,-27.6302956,17.98300795,13.27188239,1.850457728,1.581282093,1.971194684,2.484534588,0.908970324,0.245061736,-0.221902002,1.797569481,3.274219171,1.999387793,1.807491926,2.371117523,2.792437938,2.416359988,1.664299209,-0.549149895
36,7431,7431,-1.074372432,1.221074294,1.456511582,-1.829412189,1.297022876,1.991622128,1.570906864,0.760976087,-1.854681878,-1.643498674,0.838910024,2.463020874,-53.1113114,57.3891263,26.11098749,-19.47114869,-47.41277899,0.847258495,0.355738484,0.137135679,2.91391897,2.590472754,2.294483844,1.603549749,0.343098175,2.581297756,0.825871855,0.684103209,1.068425816,1.524676679,2.936526355,1.113641255,-0.103930386
37,5477,5477,-1.493124006,-1.099982914,1.121270779,-0.837627425,0.965802042,1.97859807,-1.045947139,0.005718171,1.013986707,1.08972678,-0.627978044,1.054544892,44.65642789,-48.84952983,-70.50687682,28.20867836,-41.09133525,1.531858777,1.840000594,3.076399127,2.744547313,1.838959008,1.643642378,2.258012813,1.632863513,1.074966691,2.05782075,2.033459527,1.491767726,2.766944155,1.620365721,0.932199336,-0.176978095
38,6589,6589,-2.270236943,1.888739837,-2.221580137,2.292561343,2.424859251,-0.458856705,-2.064340586,1.286912385,-0.251760559,-1.28550236,0.020900872,0.731595708,57.60244715,-25.74488305,-23.26382696,49.73793322,11.72100108,2.040410714,2.795307833,1.502684855,1.609083441,2.464722265,1.132077777,2.38388259,2.148169276,1.696531923,1.00888847,1.221219234,1.012885855,0.353479333,0.887361648,2.582978226,0.552556845
39,3146,3146,2.441414375,1.174772816,-0.917767961,1.091305517,0.176723419,-1.465151523,1.59643224,0.871509123,1.719543809,1.718587347,-2.456058749,0.999255106,29.71655009,-53.24400051,27.55865731,-25.8650912,38.87108668,0.936067649,1.44909295,2.270722242,1.752267423,1.032486198,1.995033069,0.572159213,1.148306338,2.196893185,0.880337003,2.564601313,1.280279361,2.196350474,2.992666988,2.776615336,0.409585472
40,7132,7132,-0.947101864,-0.162543006,0.740018844,-1.060470445,-0.401066505,0.94716821,0.358479636,-0.022758586,2.109007564,0.552455036,-0.090214642,2.603779177,26.52560506,74.98533418,-21.03616012,11.23819817,-52.43815451,2.266176635,0.030397175,0.92877843,1.372019644,1.587185674,1.504128472,1.397751044,0.65442021,1.086911213,1.834492975,0.851290036,1.695229238,1.050110102,0.878769137,0.596397688,0.11489676
41,1003,1003,1.23276042,0.319873876,-1.672451222,2.963178059,-0.946682625,1.062820655,2.254277827,-0.794101739,1.078175567,1.534044772,0.61288769,-2.384837891,71.07482527,-0.84759871,16.79412343,-58.15430491,19.80863321,0.954178504,1.637317154,1.219386937,1.721562416,2.691780909,2.670882502,2.356793169,1.83100437,1.885098805,3.613514205,2.050469816,0.824849109,1.154022269,0.644752901,2.200503002,0.575864513
42,4706,4706,0.577540516,1.102111392,-0.384673321,-0.767561737,-0.140374438,-0.443373925,-1.411932827,0.945797523,2.287524572,0.796417325,-1.614877163,-1.200151052,-8.561531501,18.87455496,-5.29139345,58.51232614,-52.88780267,1.759623644,3.143529294,1.964975416,1.672180397,1.023094409,0.34681763,1.601643548,2.48352729,-0.085355666,2.953760407,0.918400538,0.473183119,2.75835016,2.497684504,1.173284571,0.4082216
43,5348,5348,-1.647263973,0.694503099,0.900992811,1.710742052,-1.450268388,1.367209849,0.673923673,-0.493460292,1.315050489,-1.898945039,-2.119412477,-1.76886164,19.4572668,6.659377578,13.81877059,43.46332042,9.391009551,0.841931745,1.122038813,1.128422829,0.02257844,1.676063398,0.669585568,0.11571398,1.781957852,0.856190125,0.867740849,2.382965661,0.788694244,0.055476344,0.59661548,1.919739005,-0.427757401
44,4022,4022,1.44457797,-1.210814154,-1.748843874,-0.67286474,-0.30025121,0.061126167,-1.07035816,1.33841382,2.825101707,-2.535148775,-0.594828505,0.675128105,-44.62415514,55.60980285,71.83978972,-39.33677128,-61.22569273,1.828218744,1.763982878,0.862480979,0.585408246,1.372429985,0.956086933,1.897723227,3.253226783,2.733465531,1.508068726,2.214111143,2.254248688,1.87589037,2.744579478,1.993429386,0.322895048
45,1272,1272,-1.554554147,2.114879186,0.653724664,1.3203011,2.325123885,2.655026841,0.618857152,0.94107938,0.162548922,-1.392745734,2.27357646,-0.448923001,-7.740548702,4.137944358,-31.00819031,43.91691685,50.08470854,2.138773411,1.05210785,0.609676773,0.218347531,0.500696914,1.021043494,2.282781936,1.542112889,1.866725168,2.049165662,1.984842772,1.56759789,1.194240494,1.398609516,1.331601247,0.344168822
46,2247,2247,0.16526737,-1.991402026,2.389439031,-1.576236327,-1.447848538,-0.063660874,-0.98816827,-1.486434283,-1.131513973,-0.89266004,-0.224301208,0.766061707,40.53497285,-56.65965565,62.28131193,35.07839358,-27.60987517,1.765960513,0.98107776,1.392647459,0.985972928,2.895106715,1.607798063,-0.212350838,0.57051569,3.196464009,2.025287215,0.517950808,2.961393125,0.465966942,0.215715658,1.939707922,-0.220483321
47,8144,8144,1.502356523,1.493379782,-0.68657595,1.248145201,-0.933313134,-0.754896078,1.10276419,-0.323949051,1.083219274,0.96850361,0.180480979,2.205086877,8.510783873,-65.1899673,-37.81644533,-0.704503137,-5.821964358,2.111323999,1.832684121,0.447012955,0.779294382,2.016257751,2.404940128,1.331343639,0.662488825,2.900875675,-0.543526185,1.875284474,0.431748474,2.361583725,0.630145906,1.389676857,-0.10098473
48,5957,5957,0.017017871,-2.020293268,-0.583248256,0.887209235,-2.629449574,2.168421407,1.822066089,0.478598069,2.071724157,0.276552103,-1.880522028,1.529632713,-49.17368145,-1.918667844,35.4220282,-49.82657236,-55.16443229,1.063565351,2.966315932,1.722975349,0.971330926,1.448415007,2.989400716,1.143367061,1.02779318,3.042923502,0.025548081,1.470271619,1.870345913,1.298351921,1.384788148,1.558758932,0.288876966
49,890,890,1.060705409,-2.129468042,0.107995942,0.349235895,0.975211961,0.340343076,-3.014886618,0.074855893,-1.932808044,-0.218327818,-0.79470152,-1.453145866,2.318093556,-60.85537788,-17.69280602,-63.7962803,-39.7534306,0.98760199,0.426191723,2.323444527,1.903584513,1.258894663,0.822343662,0.424144608,1.781586478,1.362461745,2.123496843,2.57755312,1.119759243,1.527855802,1.564724508,0.970631817,-0.491739918
50,2341,2341,-0.412140259,0.140124161,-0.014445245,0.049949444,0.51523501,0.412690336,-1.380522678,1.2781012,2.387160579,-1.181086557,-0.198125697,-0.785847293,62.48099316,33.43793848,55.71883951,-5.175175504,49.25566011,1.832637038,2.711621875,1.324025092,0.118518342,1.001209661,1.287219585,2.198110669,-0.840440984,1.345930174,2.123465856,1.892651128,1.456585093,1.226225746,1.278974029,1.660217798,0.123857427
51,1001,1001,1.946235494,-2.105102527,-0.96673947,-2.075398252,-0.498025395,0.422590107,-1.38791858,-0.706399739,-1.858784928,-2.34106455,-1.300212877,2.238116874,-60.26230018,64.26721691,28.44696519,-30.41632283,-9.348630651,0.125213241,1.848460647,0.104653268,1.510949099,2.028750583,0.725967523,0.823691687,1.298283529,1.361044778,2.442642035,1.452432973,0.759541092,0.880720776,0.041367461,2.464382723,0.66888033
52,3034,3034,-0.083285501,-0.141751718,-1.822419244,-1.207073261,-1.985521733,1.860847028,-1.476463894,-0.285145742,1.994385043,1.062870826,0.458353044,0.800134658,48.30604475,54.12412601,15.51959291,40.66225812,53.51855343,1.756433303,2.194529511,0.36429477,1.320417014,1.664592304,2.173860073,0.811842426,1.268429709,2.649373865,1.268208892,1.481483907,0.462034649,1.052087052,1.431014371,2.010549859,0.193729752
53,3634,3634,3.224246174,0.599442049,-2.552625334,1.992783228,1.427256398,0.603879918,-1.577255711,1.441937758,0.60290679,2.274829309,1.459151705,2.160406222,-11.43878697,-60.39756713,18.63990223,20.43538763,43.44882207,2.467221088,1.518357457,0.62266217,1.828035762,1.426398182,1.217053255,2.190699259,1.431619188,0.770786698,2.925599187,1.001912934,2.255145464,0.908888549,1.107554506,0.862124031,0.049495979
54,897,897,-2.167254289,0.750495791,-0.003067983,-1.554103174,1.634465949,1.833237006,-2.283323438,-1.046708084,1.805393881,-1.884026045,-0.998277129,2.059055921,-66.07403947,-42.08049267,56.74888759,64.26162938,43.39047713,1.366076044,0.972755207,2.729915826,2.189130738,3.024818547,2.025369123,1.267659374,2.452768673,2.333898598,1.849958956,3.554186404,1.407907761,3.285524509,1.32985369,1.581900116,-0.090470589
55,6978,6978,-1.528418792,1.551017727,-1.830444656,-1.89392098,-0.088973797,2.798171521,-1.741089894,-1.924803919,1.218425198,-0.820388557,-1.487907058,2.44998684,49.48802159,-65.87738545,-36.54479258,60.70619128,28.92433064,1.49988922,1.996494959,3.324097061,1.400935345,0.722765042,1.329881576,2.546901665,0.939830751,0.666246022,1.657620408,2.193586484,1.208223174,0.304242412,0.87336278,0.347999059,0.014327593
56,193,193,0.257731766,1.075831332,1.527224671,0.852985314,-0.015331078,2.73504685,1.045350654,2.143993868,0.911872045,0.162574469,-0.084571257,2.015935234,18.80312363,52.42968283,5.649791252,-10.93507028,63.78427716,1.144203303,2.399452754,1.579551392,2.763376277,1.238535424,1.292343201,1.287557764,2.581334334,1.226702437,1.681406789,0.220076898,1.628993856,2.023969023,0.213340456,1.06934269,0.380212337
57,2866,2866,-0.146953773,2.283246307,-1.095876711,-0.895258114,-0.842257146,0.922141522,-3.556290035,0.30669978,-1.881037096,2.351671423,0.247362521,1.825588504,18.71796908,53.20995316,-3.928445738,51.2481593,50.33656175,1.913850753,2.344991856,1.454908758,1.71450375,2.163851691,0.72268976,1.398055661,0.816400669,2.129584111,0.776879082,0.481999205,2.030198872,1.372026466,2.348286049,2.021046237,-0.674506347
58,3255,3255,-1.090389933,2.493494032,2.509277125,1.963662621,0.589893231,-0.576842187,1.10443807,2.449608002,-0.737388575,1.033624276,1.483745191,1.290744221,3.682529059,-67.38518794,7.185838871,55.7732046,33.27587847,2.316263717,0.783361899,1.123777264,0.652430762,0.751502622,-0.405354579,2.784339019,2.312705124,2.557682735,2.61231858,1.500360919,2.569515352,0.144914191,-0.132072179,1.172865568,1.134928748
59,5104,5104,-2.415904937,-0.426534804,-1.035924181,3.006758711,-0.529017084,2.172303466,-0.292775594,0.066909917,0.126254196,-1.709896793,-1.434706023,1.366903358,-35.2591469,27.46009993,70.19351876,-36.85622919,72.98601252,-0.149595192,1.230953211,1.335214067,1.441468546,1.78123525,1.363900928,1.306122265,0.243978998,0.464456129,0.65176413,2.435836184,2.041924033,-0.343203012,0.006393074,0.427868594,0.372470633
60,3917,3917,0.047380809,-2.750054098,1.2026325,-0.702574505,-1.139911992,0.328732076,0.26059442,1.004955085,0.428463396,2.020940266,-0.489113346,0.655512468,74.35215708,5.856956937,-58.63041689,49.31788267,47.51067854,0.756647943,0.754862029,2.158309054,2.028171352,1.78249492,1.623806389,0.981610043,0.105399725,2.248332034,0.20571377,1.165831772,0.906521463,0.597649913,1.309891344,1.802560298,0.519453238
61,1638,1638,2.642172398,-1.631476486,1.979846675,-0.723311535,-0.929384822,1.54476385,1.23075224,-0.555120032,0.898113111,2.009020534,-0.884084148,-1.233024616,49.88257998,14.25766383,68.34037284,-9.807332558,-50.51804199,1.910962988,2.185910062,2.136902265,3.072840088,0.60280127,1.3121806,2.180501227,0.460627843,2.690294072,1.335885428,0.862647436,2.175766828,1.382709346,2.276700837,2.337285297,0.432784259
62,6096,6096,0.313451136,0.66196584,-0.657365651,-1.833561964,-1.760938151,0.434127914,-0.236096167,-2.05333565,1.416893675,2.699832038,-0.957821848,-1.967041024,42.29869315,15.38178337,-30.43449113,-34.88575923,-30.39186462,1.324875652,0.386086049,0.843554366,1.147438462,1.334108732,2.292139549,2.836104959,3.236474921,2.099810161,1.942597793,0.324826858,1.057604725,0.411269241,0.010715727,0.362337115,0.082034677
63,8010,8010,2.350563724,0.513837034,0.905073352,-2.127224321,-0.67281993,2.485788681,-0.929925188,-0.305740156,-0.235679258,1.74700786,-0.790344928,1.401678753,46.05031167,-54.72522511,11.46324808,14.72509367,-68.9614334,2.287942564,1.492551894,0.727571069,1.220671719,2.653428505,1.651515846,2.528965847,1.170092297,0.884615872,0.918165625,1.983461333,2.416781995,1.749310272,2.542421868,0.222275097,-0.31808687
64,1106,1106,1.133659229,1.115927834,0.385398879,-1.928308006,0.771372624,1.737883685,-1.988094728,-1.222173536,0.482458891,-1.897710085,-1.207675858,0.427799187,24.97411983,10.7225892,-21.40198785,49.83097268,41.12411746,2.450697806,1.080613348,2.084862667,0.804934093,0.708651175,2.566371934,1.122618144,1.862481108,1.682960191,2.545100382,1.2834729,1.529876593,1.330749153,2.519941795,1.15856751,0.059491521
65,4881,4881,0.976872688,-1.505262216,-1.666034802,-0.487091709,0.11869357,0.997750648,-2.076346745,-2.335372549,1.262679658,1.357499238,0.8946899,2.046471167,-26.63999471,-6.319874979,-51.54873004,-46.19837555,-25.2371474,0.277838476,1.51095155,2.602002229,1.480291386,2.653554498,2.036849607,1.713667252,2.010055492,2.410165416,1.735986079,1.427045192,1.97800025,1.95978632,0.123736304,2.367609165,0.154096195
66,6821,6821,2.364375865,0.331311933,-0.760674393,2.224935129,-0.67175007,0.494349381,-0.572580485,-0.20766379,0.01062714,-2.375908917,0.578956039,2.315404897,-46.7249226,52.41662963,-47.13723866,-32.28203715,42.65036926,2.463237139,0.289774841,3.054399742,1.360140744,0.679013235,1.324230784,2.970559446,0.318097418,1.638648712,1.343185004,0.454777198,1.53997216,2.18492083,2.374271914,2.706244591,1.252802655
67,5597,5597,-2.004889904,0.627809504,-1.261411098,0.655268383,0.645679138,1.096381858,-2.653327828,2.90054727,-0.860649526,0.703926331,-0.02280011,0.211247632,64.35988589,-53.68590402,33.76326619,3.28280026,-24.06186441,0.023486386,0.922330487,0.78149565,0.968652618,1.074469544,0.766967142,1.585685265,1.282365608,0.607891774,0.81125071,0.240488845,2.734254488,0.655967016,1.556775459,1.977133587,0.303914797
68,2228,2228,1.471238685,-0.44678071,-1.117483524,-1.176844821,0.195302374,1.605406004,-1.19010893,-1.097482062,2.585550618,1.574702475,1.619617542,1.022148515,-68.07017505,-74.36227157,-10.18057015,6.410210403,51.35154912,0.460816965,2.952430911,1.552445426,1.333108586,1.047032866,1.993139893,1.556887771,2.343799788,1.895696968,2.154730804,2.453402017,1.783143412,3.122490625,1.469462379,2.172543645,0.573642088
69,4485,4485,-1.303960468,-2.705454455,-1.39326949,-1.228080003,1.131601586,1.60469433,0.242708636,1.641946406,-0.913225918,-0.424343515,1.185581309,1.055364011,57.50885992,34.04853457,-8.261842724,61.33744287,-10.97037952,2.954083017,1.148986919,-0.276820193,2.025064876,1.282186582,0.794276859,3.107954991,0.98251574,1.141446438,0.731313334,1.904781644,1.891535446,1.734239484,2.861209264,0.642341943,-0.189570355
70,307,307,-0.607430696,2.44522048,-1.379157091,2.491595956,0.123254898,2.070212263,0.887020799,-0.747184126,0.517331884,-2.074318506,2.359828766,1.172169232,21.56103203,-37.13412389,43.07466074,-37.09896522,75.02614646,0.253752821,2.05952113,2.245307992,2.414181685,1.622753751,1.435653582,2.58461225,1.078206554,0.943551079,1.697761815,-0.04578509,2.951089192,1.718242271,1.566599809,2.286813264,0.515741988
71,2589,2589,0.981973632,-0.761544702,-0.352323262,-1.956348481,2.032516995,1.176130837,-0.6914813,-0.644706886,-0.120789426,-1.995265403,0.404876205,-1.2862956,-26.99246092,-54.58153191,-21.91902543,38.1095157,23.1921615,0.436740487,1.29382805,1.899628163,3.377718082,1.207444195,1.889070457,1.833641251,3.334559873,2.515370032,1.837821979,1.396422053,1.84747928,2.343039553,0.045537983,2.261973376,0.31065072
72,3219,3219,2.791771109,2.226772529,1.287430588,0.395904922,0.07658475,1.669904777,1.412203255,-1.261138713,-2.000827191,0.792353973,1.92410096,0.745800916,-54.5878212,-61.76799089,-4.090651501,-52.61412025,59.2961389,2.073785653,1.157681272,1.068446697,0.281056288,1.063135096,1.016088675,1.013981759,1.735166095,2.605780093,2.461645152,2.237812469,1.84716033,0.928670877,2.410811344,2.934671245,0.274279027
73,1839,1839,-2.799449004,0.147837109,-2.491996477,-1.946609537,1.469722466,-1.085079642,-1.686431284,1.478133625,1.653836094,-1.643572844,1.928954229,-0.338980563,-13.47067634,24.29443101,65.47231357,-8.754298621,70.74162519,2.436389351,2.072215619,0.529706275,2.645755554,0.658297091,1.191836126,0.68884623,2.461488578,0.617754015,1.595306447,2.180942877,0.593017587,2.821502271,1.53036031,2.127846634,0.77553771
74,2048,2048,-1.072112735,1.33514483,-2.134340686,-1.952253181,1.619154998,-1.55773347,-0.176571943,-1.604498996,0.305731452,-1.519969512,0.068404993,-0.621930529,-25.14666754,-41.55399772,35.43982425,70.73850313,-63.40044879,1.48793168,1.792831966,2.470275322,3.690997566,0.607877252,1.94975592,0.867307104,1.68716566,1.406879452,0.87125701,1.761439261,3.412466348,1.212947159,2.975491412,0.263052526,-0.581670091
75,4326,4326,-0.847007349,-1.327118119,0.212963079,0.838528929,-1.453066455,-0.847355307,-1.815476161,0.15375394,-0.305260229,-1.595375053,1.122962904,-1.138862547,6.793719755,9.019790012,61.82723512,25.55869171,-53.75303487,1.738893495,0.802103736,-0.063126463,1.780563731,0.281125473,2.588038395,1.254303516,0.074127447,1.193272784,0.977775537,1.06506658,1.322951195,2.799264711,0.858700458,1.283300585,0.744655536
76,3330,3330,0.5966556,-0.428084373,-0.089549634,1.811587937,-0.887539708,-1.12241287,2.084388721,0.609725941,0.579104332,1.312572761,2.285678122,0.01905617,-73.17264383,37.09546961,-18.88924314,-26.9787915,-62.43892794,1.25729033,1.893668342,-0.290325385,1.794201279,0.943241041,2.169175503,0.871831081,2.175676517,2.158648598,0.26711205,0.808734503,0.341740481,1.509028334,1.890732996,4.068475082,-0.507430869
77,5449,5449,-0.797190092,1.699152574,1.121970723,-2.203509591,-1.780303095,-0.133426092,2.299375371,-0.657731545,0.594821488,1.155006031,1.337063609,-0.573710798,33.92243787,-29.27891451,-70.19596562,-42.25963431,-18.74461441,3.031036607,2.355940534,0.982314376,2.417170928,2.361796888,2.637434597,1.272984806,0.794615006,2.855104861,2.405207021,2.637866144,0.972043583,1.194255418,2.794447872,0.241595935,-0.383830293
78,3145,3145,1.555208269,1.703635306,-2.478639838,-0.241582323,0.329740806,-1.64199873,1.67590912,-0.917152682,0.073237214,-2.180212713,-1.929770341,-1.716083529,-53.05674283,-40.32995422,60.65903929,62.2550655,11.19160581,1.670219441,1.440843686,2.266715792,0.818188287,0.99366495,1.139719457,0.856477497,2.504428768,0.943807271,1.425481345,1.773100722,0.15157119,2.716480905,2.60088498,2.317226915,0.929172537
79,7346,7346,-0.211482014,0.747404049,-0.514901898,1.947623095,-0.261201476,-1.421493449,-0.824489386,0.430078651,0.473630128,0.338045765,0.497843003,-0.436306104,30.89216698,40.52169517,-17.07859057,39.41666134,-2.906774142,1.796638745,0.662607838,1.790782614,0.535873854,1.893054122,3.073935444,0.793995451,2.513123606,0.374921414,1.249566093,3.573150829,0.356904653,0.226985921,0.361127019,1.743832813,0.058366885
80,1348,1348,-1.323270329,1.285870009,-1.884299869,0.433027372,3.220329668,0.649381663,0.98301388,3.198003655,2.031723866,0.375546541,0.97214899,0.044640507,-40.07982656,73.42596202,-25.07604223,14.36868695,57.02320819,0.827280357,1.310274319,0.790886698,2.464143784,2.404201474,2.951162598,0.462403309,2.576685103,2.467055564,3.125701774,0.058283914,1.380599602,2.723322372,1.092378145,0.742912989,0.541240681
81,2319,2319,-1.707559348,-0.923897291,0.21164663,0.697426608,0.892780582,0.422512195,2.380037898,0.675829758,2.194254526,0.288563747,-1.217150752,0.718000601,24.52869027,-32.65435051,-0.477559533,11.43808269,-65.37120179,2.5489737,2.455465174,1.424838831,2.754381329,1.119316771,2.615649952,1.977496896,1.578644373,1.275001538,0.497693869,1.51940056,1.113150236,1.122755335,2.257878835,2.547411493,-0.024456987
82,7387,7387,0.545355908,-0.302876367,-0.619193942,1.47942529,-0.333991818,0.285601349,1.643311379,-1.469824669,1.070373772,-1.567026517,-1.746835848,2.670211207,7.643957575,-8.430149765,32.9354774,39.25773198,-13.20922128,0.601493777,1.207166606,2.027613251,1.800591315,2.969986186,1.279404185,2.027138677,2.532294896,0.548320519,2.789433117,0.893803481,1.911455102,3.425056877,1.856728322,0.986111815,-0.556813481
83,2447,2447,-1.837435257,-0.71567565,3.020606073,1.354860416,-0.567050731,1.059852976,-0.383775282,-0.560133246,1.647632927,-0.01548534,-1.0443918,1.347898464,-2.833500122,-26.75087451,-54.9693232,50.14443073,-73.73713797,1.802360706,0.784404782,1.945365108,1.059492114,2.152550657,0.790803216,0.601171149,1.148210815,0.854377267,1.696172186,0.934571209,2.244418413,0.816111761,0.974421137,-0.202229688,-0.101893539
84,2382,2382,3.120165199,1.773450753,-0.201579752,-0.579412181,2.476983592,-0.817760412,-1.22596483,-0.241213765,-1.784070266,-0.172514486,0.562054377,-1.877304198,-50.67834151,40.76622905,-42.33714545,31.07661833,-65.89036947,2.895446535,0.606728158,3.863855742,1.764404323,2.357095606,1.424991086,1.635426671,1.730021475,2.668879267,2.259780592,0.148560766,1.180155723,1.253625832,2.729698209,1.679087287,0.420727217
85,3787,3787,1.384218977,-0.04614394,1.226694024,-0.521696971,0.883662207,1.247239541,-0.517071218,0.065242518,-0.880953842,2.691024136,-1.304180706,-2.368380815,48.5143651,-21.95023705,47.64401918,-60.64532216,-5.7507256,1.275719887,1.561115315,0.60312219,1.028495559,1.676869866,1.27724437,3.240859878,2.736689291,1.924994356,1.629802242,3.19482143,1.410773434,1.009169766,0.817899269,2.644641247,0.212456162
86,5780,5780,0.649876551,1.461102071,-0.521449634,1.436500904,-1.44928949,-0.17946556,2.846671449,1.38380137,-1.622020791,2.022946795,1.024392237,1.428685508,56.85686066,22.68946458,36.96489051,5.907192509,3.061084708,1.704278327,1.081118597,1.709173235,0.496057508,3.00917591,0.474871299,2.051334682,1.354896412,1.935244535,1.133896179,0.956246667,1.791910455,1.80920858,1.668959445,1.760079148,0.213358683
87,4462,4462,-0.10342618,-1.400310196,0.571764513,-1.162761286,-2.28931599,0.02588337,-1.877729185,-0.255497205,-0.644429212,-2.143128809,-1.579749444,-0.34428125,-43.1980795,31.98220165,-27.31149284,0.962782804,25.45339972,1.586745046,2.705724355,1.040792873,2.220320674,1.048156375,0.915488249,2.458788051,1.597056836,1.966356986,1.420995551,0.879346788,0.509147072,1.24110906,1.250770795,1.543530828,-0.660845531
88,278,278,-1.153973932,-0.055480867,-1.406920779,0.394524004,-0.277318787,0.861543345,0.90229693,1.350435497,1.413294001,-0.17104435,1.222671005,2.381774607,-4.507617772,-73.6505501,-24.98659023,48.82552076,15.2453945,-0.014714452,2.60548983,2.790214526,1.109798579,2.203298083,2.219457933,3.015887908,1.727912553,0.223060659,0.887122851,0.282604425,2.352981464,2.159732029,1.258710798,1.479026457,0.57164017
89,7040,7040,-1.138059473,-0.095334257,2.077599234,0.593980399,1.481275616,-0.015229141,2.452754343,2.939542148,-0.628381795,0.99081954,2.395065608,2.214676024,14.93330158,-58.92776665,-59.5689881,-42.81600837,-67.1185591,-0.073888194,1.068337736,1.261905848,1.388419793,1.719118285,1.730205704,0.606198893,1.722956442,1.751224442,1.459748688,1.584661728,0.691421857,1.03927328,1.578972599,1.696724094,0.8574247
90,2650,2650,2.552338217,0.28700707,-0.129732757,-0.833292378,0.202979583,1.637391163,0.086549579,1.236649527,1.057926873,-1.377226468,0.661320818,1.35906247,64.30327887,19.57839055,4.233672022,51.4434141,4.861284705,3.157069812,1.628012428,2.374213538,1.42372839,2.050583393,0.953669836,2.179944814,1.630433605,2.070803332,2.366745824,1.489206093,0.795680975,1.815189949,1.198118297,0.675777056,0.775082388
91,6461,6461,0.11975263,1.024256884,1.724945143,-0.912038252,-1.615106665,-0.516467131,-1.890187385,0.24883061,2.707090628,-0.846186344,2.123784128,-1.852528965,54.10138532,32.71211057,54.88165884,43.42245224,43.68848412,2.895181265,-0.072734564,0.425093664,0.398848028,2.238304523,2.055965632,2.021729455,0.32292132,2.618762016,1.025050013,1.561346853,0.512985492,1.084586848,2.530696698,0.300048522,0.319645443
92,946,946,0.371384616,1.945542838,0.084063558,1.563242829,0.965005862,0.464336892,1.372920762,1.414507315,-1.436727937,2.627429554,2.486786096,-0.362632211,66.05491039,28.34407849,73.0046893,10.40870426,-48.72666264,1.416111924,1.590049268,2.420225017,1.280127723,-0.336557049,2.362584053,2.208646129,-0.006278414,3.170434697,1.441398849,2.339343353,1.046468842,0.473156217,3.091768907,2.075210009,0.261951262
93,7168,7168,-1.020558444,0.406826954,-1.321394133,0.391557121,1.983472079,0.927286137,2.51859946,1.243460984,-0.034026536,1.880962541,-1.02686369,-0.857951375,-14.67778211,-66.65416012,38.55308801,-10.04621821,-54.45498426,2.528082921,2.205680114,2.685702588,0.657648529,0.908584363,1.10256305,2.390450697,2.157129762,0.905076046,2.006931551,2.128278776,1.628193528,1.156265793,0.586448496,1.010373752,0.407069823
94,1235,1235,-0.255030936,0.97019531,-1.90732734,0.339033889,1.445849479,1.199720572,0.661714793,-1.201963644,1.071530781,-0.604359921,-1.262619607,1.432842671,-41.22014812,25.35270392,24.6733179,-39.94285821,58.62377583,3.156143806,1.097467354,1.090854881,1.422718835,2.01085296,1.63615303,1.948755174,1.885429259,0.930667152,1.853698099,2.068494502,1.84624396,0.446630419,0.914313597,0.377052925,-0.530071094
95,2607,2607,-0.640064025,-2.657417651,1.484905917,2.190460536,-2.00052411,2.031854261,0.964900719,0.838004835,-0.111457609,1.958681292,-1.469005943,-0.923714178,-35.75824883,9.172327151,1.139883663,18.9495608,-12.20335952,1.655475519,2.175403039,2.041171634,1.70312771,0.167278327,1.969847746,0.741366216,-0.160327777,1.712201636,2.437852182,3.013439314,0.006771576,0.759066951,0.70959799,0.744951113,-0.200698766
96,1980,1980,1.672924934,-1.882862605,1.68724998,-1.765808131,1.487551229,-1.303056548,2.065363178,0.708382334,-1.721336162,0.1494204,0.509700406,2.031950563,-48.22500233,-16.99086169,19.96674421,0.281979346,-35.06936395,2.077537533,2.270655025,1.362544808,2.444221629,0.903914074,3.279036645,1.988569818,1.646142948,1.622109237,1.571616973,2.975770671,2.325571454,1.937296244,0.82550388,2.496367957,-0.516877287
97,4382,4382,-1.41832168,-0.542244904,-2.258592215,-0.737108734,0.626210193,2.145147709,-0.446408235,0.695218417,0.408626181,2.41032829,-0.561134964,1.185835079,-37.00586443,-4.859869547,-52.33861074,-52.14463715,-66.81934366,1.617918271,0.809094494,1.509802632,2.682159585,0.997485648,2.111672804,1.991651223,1.142610067,2.277837429,1.539741054,1.940656236,0.906184984,2.628025837,1.287074225,1.831254554,0.341447242
98,930,930,1.365444207,2.677381651,-0.728677071,1.123799784,2.410301671,1.668014387,0.680220403,1.913264553,0.644564348,-1.597023859,-1.468714886,0.570630887,36.90038505,45.33817391,51.43973101,9.652629937,74.36567737,0.922253692,3.050159133,2.339255152,2.161217571,1.641345559,2.219371811,1.632521987,1.587925783,1.931724495,2.264877815,2.823605557,2.773123002,2.619251076,1.548036436,1.216384288,1.347376692
99,5115,5115,0.662925161,1.740898235,0.177827929,-0.517307871,0.888210908,0.671244589,1.328432411,-0.101249573,1.016434198,-0.276488009,1.413538289,-0.174380329,70.22999108,29.1591052,-71.42388334,-36.40033977,37.84182397,1.954854713,1.384595474,1.202486849,1.71280484,1.231082212,1.241482241,1.960203783,2.149726369,-0.046250402,2.024205778,0.198775151,0.67989156,0.336445178,1.3914834,1.560967852,-0.596766923
100,5103,5103,1.613272647,1.665661841,1.204715476,-0.867612149,-1.401623086,1.930519529,0.892222309,-1.676281668,-1.633657507,0.2051496,-0.312513854,2.716250022,-21.66015385,-16.46373621,-40.13253222,21.64875605,-43.94042356,2.217858272,0.46538604,2.43071251,0.796448611,0.407593524,2.546205092,2.767194912,2.840736735,2.253333601,0.36927627,0.570335388,0.578025118,0.86071498,1.44205541,2.53384115,0.503862488
101,1221,1221,-1.84172958,0.096339318,-0.73052696,-1.782760377,1.93849361,-2.316602388,2.546412997,-0.778197415,-1.137496543,-0.56737506,-1.738577143,1.827739289,-68.0056284,30.34900181,59.55286101,-52.23693208,-55.48031084,1.950313151,1.661853691,1.021200374,0.549011842,2.193316195,0.24438462,0.683286879,2.418569508,1.791424662,0.36453521,0.260717307,2.146138906,2.331759758,1.049106666,0.117246488,-0.308715354
102,5903,5903,1.743645484,-1.556463721,-0.650867482,-0.936622237,1.299075885,0.487497378,-1.819082719,2.42966711,-0.889320191,-1.817781559,-2.033481851,2.653863754,21.46758482,-22.1102792,-40.08300678,-11.300219,73.73173279,0.014840694,2.975714304,1.529465948,1.735746148,2.137297854,0.563895327,1.069029996,2.539425547,1.281807981,0.477902394,1.731708001,3.165531031,1.053426302,1.151253176,1.055025788,0.718227624
103,5666,5666,-1.79723029,1.523351259,1.670107078,-2.452980422,0.660053703,2.376631206,0.37048887,2.068440553,-0.4585102,0.268620486,-2.526120801,-1.781733372,25.64636373,28.02937607,-13.83621492,57.39344056,-71.62481842,2.051984344,0.385670098,0.714637403,1.328420511,1.088491516,-0.123647943,0.371322402,0.65210464,3.277484061,1.110906103,1.515226248,2.133374192,1.41248975,1.283908899,2.140431366,0.605835914
104,2559,2559,2.211151665,1.320733136,0.541005236,-0.971094065,-0.217722288,-0.074162393,-1.102789721,-1.967758182,-1.722584694,1.329788235,1.730309484,2.154286498,7.077748772,-55.30954865,-42.09343946,11.05001884,-38.73425832,2.561245534,1.880797824,2.070695864,1.836157935,0.29029261,2.035207884,1.629251943,0.712516212,0.156463301,1.442225261,2.438644011,1.304437107,2.420521819,1.405395441,2.743239379,-0.19492398
105,7961,7961,2.011629563,3.85916898,2.222543173,-1.880647626,-0.400154215,1.47257002,-0.71121216,-1.8416015,3.093462256,0.311524389,-0.866633948,1.854144517,-8.419889779,26.33287075,33.75196688,19.58464979,58.26088504,1.389745079,0.291097777,1.829614732,0.702031704,2.030692022,2.403413899,0.276910497,0.566856112,1.869548093,1.685518432,2.414749376,-0.366311797,1.884699907,1.432456178,0.658752785,-0.282420682
106,5126,5126,-1.220893534,-1.240775684,2.794370038,0.427453701,1.651643603,0.365964103,-0.158353455,-0.693422396,-0.974342164,-1.359155595,0.218752667,1.279981438,-35.5508429,-22.38437462,39.74733405,-42.01462369,71.6434399,0.941174675,0.529156466,1.586575939,1.339519674,1.420619537,1.503820711,0.996269033,1.314492696,0.845634718,1.780162645,2.388794758,1.418411553,0.32747712,0.949439939,1.043245196,0.582094636
107,5927,5927,1.196311284,-0.786294459,0.883849615,-1.235452762,-3.60486792,-1.562900796,-0.25554425,1.870348526,-0.896441715,1.391199558,-1.228338543,-1.130055431,41.15256072,34.14046479,10.45009092,58.1921159,-56.00116608,1.969758863,1.664080278,0.178014274,2.280588137,1.332404628,-0.020267716,2.054169771,2.120340991,1.784916429,2.370529987,1.026601214,2.538355212,1.560001434,1.036691464,0.654456573,-0.624252308
108,4905,4905,0.236718619,1.303707481,2.072646175,0.295166597,0.969669571,1.495556037,1.713876395,-1.957739683,0.594065214,-0.547515746,1.019807145,1.573057249,-18.75036412,44.58682732,-56.03654776,34.34574825,-8.711042733,1.431742773,2.341941624,1.869478353,1.646991515,1.90162967,3.999882649,1.635153017,0.783725291,1.142996281,2.3162668,1.31015355,1.180052086,1.254676205,3.18936045,2.751095081,-0.3916734
109,3824,3824,-1.197113475,0.107588955,1.14749478,-0.810245817,-1.23770004,1.524906037,0.516613365,-0.326417439,1.544002275,-0.932805504,0.238524636,-1.865625063,65.76017345,-20.37717483,-2.865171281,-8.788564514,54.82206661,1.842914553,1.735240322,0.212411995,0.989167836,2.941163248,1.519017026,2.505784312,2.249491673,1.625600776,1.594315253,2.975404806,1.728706653,1.200603979,1.390486464,1.016998253,0.850193931
110,1659,1659,-0.425908546,-0.625067967,-2.163221739,0.025621086,0.909483749,1.025669956,1.714078149,0.912413399,1.116260938,2.231144751,0.811347202,0.499873265,-41.91236023,-39.20418662,-31.21265974,2.648530284,43.71014183,1.816806288,0.990789598,2.953058002,2.201771991,1.232166425,1.000960936,2.039970223,0.433095966,1.238325497,1.453009587,2.230687054,1.714690066,1.384685789,1.454589697,1.134260944,-0.136329426
111,3850,3850,2.030052324,-1.470737869,-1.314440194,1.832434103,-2.624425898,-1.895521415,-0.424571264,0.901016333,-2.241229218,0.908584031,0.195689331,0.237705707,-72.29250218,-12.64428851,0.310847804,68.20635767,-25.52198583,1.873252957,0.403625467,1.343689307,2.159045427,1.231579436,0.81681048,0.488407041,1.259153649,0.795736938,1.959427509,2.099183964,2.328523554,1.044136446,1.307357152,1.400310123,1.065839605
112,477,477,-0.766887129,2.158197612,1.385545346,-0.392402453,1.677669056,0.891931535,1.555101119,-0.365187123,1.556309833,-1.530632335,-1.899070361,0.065353956,-56.13844225,-71.54908083,56.42795351,-24.49082456,-69.05825848,1.374163854,1.031579928,1.344414436,-0.757300292,2.031492496,0.592732333,1.536540403,1.825430291,1.709258398,2.021038195,0.603726986,0.895867934,2.689733705,2.669954852,2.448991457,-0.171917779
113,3751,3751,-1.859634124,-0.146532263,2.73482529,1.169801054,1.284389487,-0.871570906,0.992547593,0.638594199,3.18412398,2.35762923,2.384016219,1.939247699,36.78693632,5.455811115,-14.17402202,19.76130015,43.93688154,0.414459745,3.16598668,2.684838506,1.407252076,1.688939026,2.338709422,1.359011447,2.029522132,2.280163585,1.388167922,0.999503088,2.036152612,0.35027415,1.068369157,3.010299445,-0.657572653
114,7834,7834,2.131284084,-0.054170228,-1.778228365,0.85995727,-1.862029709,-0.339039625,-1.739196764,-1.817613407,2.03910604,-0.37695709,1.854872076,-1.270820833,67.1194661,54.79102023,-72.30303856,-61.08371113,-7.605737057,1.735148847,1.323164793,0.588237665,0.836843219,1.844798986,1.670748265,2.586897151,0.857464237,0.73163857,0.817079319,1.886213534,1.492472647,0.212025995,3.217157367,2.446923142,0.015009285
115,1883,1883,1.197459758,0.211075959,-0.39038799,0.167001511,1.767837405,-1.023266413,-0.677348936,-0.847647444,-0.991305875,1.702588653,-1.806749997,-1.425974275,16.50751324,71.35578985,-56.06989511,14.83205601,27.85422396,1.278789618,2.258237369,0.376101439,-0.735783195,2.734094165,2.079048685,1.854088783,1.363507239,3.252762184,2.890330245,3.691857527,1.7843905,1.648594013,0.521200531,0.797774713,0.055832797
116,4058,4058,2.145717069,-0.337194193,1.189437705,1.490647338,0.744289603,-0.61896703,2.096317783,0.573278724,-1.429189345,0.561009602,0.007217149,1.719217045,14.49419748,68.50168039,-24.34425647,25.97874074,61.1677753,-0.0203615,2.783344986,2.618276662,0.778559712,1.552857586,1.079501339,1.40131512,0.561884268,3.923690433,1.672941596,1.308203961,0.790800719,1.315337143,1.237953053,1.365443038,-0.010283425
117,5053,5053,-1.086227067,1.983958638,1.075034386,2.613431399,-0.611714835,-2.091574197,-0.683177184,1.759267006,-0.780847771,-1.179441031,-1.308535851,0.191204591,-11.97337101,-71.90766153,-52.87030446,73.98382776,61.56541317,1.278269036,1.300424987,0.736844111,2.679079581,2.852458623,2.709170622,1.132492024,2.658115846,2.50211755,1.729892073,-0.083006015,2.104776965,1.526148307,1.278744993,1.520792046,0.121296813
118,8115,8115,-0.24913814,1.199876194,0.171148051,1.774941451,0.043805047,0.864695658,0.488832877,-0.655985579,0.909019492,1.285289986,-1.142948657,-1.276029696,37.37373333,65.15128472,-72.83017008,45.4539742,6.864161557,2.030883739,0.065102845,1.581511076,1.008449186,2.471987893,1.546018248,2.156346137,0.932503513,1.945164307,1.578027815,0.427795177,-0.298707461,2.070158349,1.983915743,2.045251406,-0.198860692
119,6677,6677,1.186713383,0.016941677,-2.456210404,2.144909502,2.283308724,-2.589632958,-1.149275499,-1.409639482,-0.381126104,0.675045361,-2.789482389,0.863008531,53.36769129,-20.79038687,50.54950637,70.83159265,52.2939331,1.921502875,2.466842533,2.742361945,0.820056389,3.061624162,1.085664414,2.299785761,1.432152287,1.284073762,2.652863182,1.593156157,1.210444184,2.104546249,1.008050923,1.74350403,0.945854811
120,6573,6573,-0.966359759,-1.042423326,-1.340245144,-1.407969302,-0.420331656,-0.858794068,-1.586366807,1.85570929,2.035177398,2.294416596,0.232728783,1.935690859,-15.96527993,0.145938008,-37.11054093,19.18437652,-8.429449156,0.862918087,2.276997302,1.277216794,2.247241933,1.411563748,3.260914222,2.532587828,2.579093266,1.747099295,2.944776615,1.459974347,2.112904112,1.344261422,0.598378437,2.302029251,0.255365447
121,7871,7871,-1.52933553,0.075962327,-0.266074912,-0.662534287,0.256742885,0.150389309,-1.147443875,2.019364573,0.630801356,-1.389346657,-0.551860753,-0.377050032,-16.84462342,29.35081872,-65.41941443,64.4386738,45.02426721,0.696825545,2.038056684,2.981685053,0.454904524,1.907287892,0.443314483,2.235156899,2.211283138,1.272361784,0.711039122,2.423427758,2.801263585,2.566712233,3.764744539,0.061696436,0.226239701
122,970,970,-1.343623563,-0.908394999,-2.009741335,0.676195378,0.366438737,1.296858682,0.706052628,-0.44869498,0.310140326,1.929566467,-0.4234425,1.773035851,45.19749167,-39.52896085,-19.78594753,-41.85888271,2.192236943,1.315290363,1.91800686,0.807950143,2.817794147,2.489545278,0.730047268,0.692966134,2.140646521,1.358061624,1.187578658,2.410164226,2.823697572,0.795969212,1.700147222,1.560288547,0.036761274
123,1632,1632,-0.578272237,-2.176470684,-0.834665672,1.257342752,-1.577767925,0.893689201,-1.142773329,-1.168884589,-1.157357745,-1.870558223,-2.113486903,0.425981958,69.03379027,29.23271075,59.67011932,63.5974732,-73.40909005,1.558285133,1.688888278,1.095326155,0.246604972,1.016049917,0.617537955,0.635429714,2.422382084,1.472271461,1.199495944,1.728909277,0.926296488,1.037093572,0.670815564,1.770093199,-0.201882827
124,4621,4621,-0.82806771,-1.369908046,2.555575183,1.445594345,-0.413982122,2.434312461,1.848164066,0.310366993,1.514869296,0.502878248,-1.504499728,1.025037639,71.47630631,-35.25344754,-47.85396038,-65.37402488,42.49501923,1.026896145,1.5267522,2.433336672,2.534660638,2.288111688,0.605823803,1.513182523,1.335736495,1.064982678,1.16059705,2.406800744,2.572398368,3.189689217,1.34782483,3.008906719,0.823404922
125,1925,1925,1.059623267,-1.111784486,-1.287329853,-1.981863718,-2.057527746,1.222951564,0.122662594,-0.293962386,-1.469568025,-2.039328801,-2.270450462,0.184307522,35.52846742,64.55098955,-13.56161269,53.52323736,-34.13869483,1.767586942,2.145913493,3.274804219,-0.198824961,1.098673392,2.181827901,0.559744558,1.497516462,1.539384497,2.656062964,1.487685545,0.6096303,0.892698208,1.938657223,1.631837472,0.877229502
126,3695,3695,-0.787162443,1.65429115,2.464487158,1.725442514,1.643557727,-2.165047198,-1.856533272,2.403763146,0.834074922,3.402833843,-0.053851407,1.92187827,-44.73721741,-27.18913573,-4.24086624,34.14748963,20.53716442,1.687602606,2.499892064,0.824036603,1.490655699,1.202891288,1.360969437,1.880861175,2.498972272,0.104740048,1.77797792,0.717482035,2.779568493,0.971011458,0.097586703,-0.017186223,-0.337459955
127,5387,5387,0.486528378,-0.146220954,2.172846912,2.760389909,1.119366477,1.179026923,0.033666301,-1.630867098,-0.060881631,-1.104593913,1.690980976,1.230018833,10.83625402,70.22379347,-29.7250275,73.92816857,-50.72682206,1.799305957,1.638819904,2.208033923,1.644843235,1.875477551,2.059677649,1.179542878,0.808968424,2.455861282,0.42473751,2.251720852,1.014264461,0.451051869,0.928710522,2.488125298,-0.338750371
128,7482,7482,2.466541356,2.251228386,1.435652812,1.376073209,0.782127157,0.51824083,-0.923858879,1.267436408,-1.330578397,0.623766447,-1.582566135,-1.093337461,1.827044528,-53.62146662,19.48992352,31.27792807,68.3403488,0.500177536,2.353904516,0.249060968,2.503200413,1.149827411,2.135075596,2.73306543,1.792217542,1.242069741,2.857850678,0.752962719,2.258439636,1.172027083,0.774679703,3.005537938,0.086837224
129,2842,2842,-2.257760994,-1.241369661,-2.785361468,0.949569879,0.642381821,2.721302451,1.361896676,2.783611245,-0.593043976,2.413390748,-0.493671841,-1.286472653,12.68224641,43.24555801,46.55869319,-2.360461574,-4.908678487,2.294343499,1.185577876,1.220948236,1.913001629,0.641404225,0.775402685,0.616410346,0.684263454,1.318331499,1.424124031,1.523099504,0.690104901,1.510864864,2.057376449,1.188596269,-0.186984529
130,2958,2958,-1.515848725,2.154389058,0.521791232,1.892769413,-1.78631256,0.850842259,0.83834669,2.69458568,-0.558940093,-0.881333201,1.002067514,0.738813689,44.44915167,-18.61947979,68.15306806,-72.47856735,-73.54199975,0.618237099,1.983946694,0.100494479,1.864346299,1.513490406,1.128386561,3.103406621,2.50255589,0.858079907,0.68476314,1.838698143,2.297969605,0.815869076,0.365842547,0.753503869,-0.34031112
131,7317,7317,2.030286574,-1.138071164,-1.713376023,-1.987244086,-1.272599852,0.747946857,0.565676552,0.104529571,-2.240383083,0.146728518,1.388990519,-0.282322169,47.95464858,61.41752593,25.00638878,65.09220712,33.67534111,1.2920096,1.448198948,2.014065775,1.386155495,1.53277956,2.960741315,1.463865965,0.192755424,2.645187651,2.576768598,2.952641826,2.022955518,1.652338539,2.274367574,2.700347711,0.046836592
132,3624,3624,0.380572325,-0.72423789,0.67633246,0.03874729,-0.154461291,-0.674664002,-1.544128288,2.037296548,-2.733723643,0.437895971,-0.91899699,2.452681233,-17.08626278,-3.55492154,-30.70733937,14.27193361,30.6972987,2.537172753,1.657742424,0.555249288,1.827821709,2.693215205,2.367711294,1.115160541,1.297776076,1.088399423,2.819803315,0.968561164,2.345804365,0.575366,1.203372326,2.34103887,0.293975442
133,1045,1045,-1.017673102,-1.62429154,-1.836855408,2.022745234,-0.332046592,1.426307767,-0.448427178,-1.158946087,1.669861531,1.970613542,-2.78991039,1.998897233,39.38130059,57.25616487,12.01736289,11.22802538,-38.63334738,2.749503461,1.408964968,0.679180613,0.61532511,2.189031499,1.25588414,-0.577726135,1.119658531,1.012918898,1.272619618,1.596243563,0.26980692,0.675801303,2.349064346,2.952785563,0.362167847
134,7099,7099,1.048428523,1.764877869,1.431799301,2.233232266,-0.26953927,-1.28132988,-0.790856629,0.458864549,1.563061356,2.09097967,-2.151523441,1.892735475,-8.989397354,-64.89872957,33.41189528,-68.18896427,-61.06361101,0.267268993,1.033899609,1.949023184,1.577917878,1.689760747,2.082607019,1.395307435,2.660247715,2.113889783,0.479872185,1.40515544,1.233138814,1.426919187,1.975008108,1.905146312,-0.278093721
135,7428,7428,-0.374159639,0.747442841,0.444036304,0.205545489,-1.343844503,0.707122735,-1.11489799,0.908466706,-2.200889484,-1.708168197,1.717616978,-2.095317097,-30.50676665,-27.21991347,73.78485024,31.66669382,62.34506248,0.927309246,0.760503586,2.874279122,2.567490809,2.586795862,1.280865246,2.839000384,2.089783232,-0.066855304,2.711273268,1.384649611,2.052337175,-0.067114123,2.192248472,1.572314151,-0.727314058
136,2686,2686,1.889252846,-2.945570966,1.527491649,2.55438277,0.077174932,-0.045767568,0.883130825,-1.535322298,-0.139856944,0.039263532,1.495185584,-0.495182156,36.06549907,36.2540266,44.54536179,-68.63933918,-64.77493487,1.929727201,3.063341184,0.658508109,1.665310129,2.454823697,2.374732884,2.918669773,1.149002137,2.214116272,1.021969199,2.621026275,2.655481307,2.625702012,1.04851083,1.719116641,-0.172629944
137,6384,6384,1.426409907,-1.918078344,3.194301631,1.533400484,0.024514313,-1.160328835,1.963031276,-0.894917935,1.529099957,1.568536689,0.719997901,-1.790355635,31.07792027,41.02047321,23.69792683,-24.31678091,63.82080297,2.599957552,1.050621609,1.110678719,1.41508786,2.141856982,2.44632931,1.321224197,0.657765513,1.606294254,0.855390566,2.48433332,2.280223294,0.434904123,0.648727827,2.389003011,0.821765899
138,1804,1804,-0.703236354,0.128711423,1.042972958,1.370652957,-1.680831359,1.04438293,2.718129463,2.114788741,0.350246893,-2.014143713,1.854477293,-1.924294016,-18.92039912,-50.84323649,-13.94207135,-66.92936902,39.21101694,0.488588719,1.476327297,2.290841066,2.207778567,1.494336845,1.088093646,1.726666512,1.473678979,0.879500714,2.025273026,3.012101577,-0.204243015,2.632883995,0.206784235,1.095288465,0.512107719
139,1256,1256,-0.79610686,-0.88135833,0.138530731,1.448176329,-0.533317158,2.138024894,-0.007999566,0.55507473,1.974162625,-0.749243267,2.905019914,1.728190694,28.24763662,-72.2119901,-8.019942924,-70.29094921,-42.33563042,1.610296768,0.765419703,2.279465948,2.972135081,2.576461804,2.80040259,1.852808191,0.76346193,1.394000332,0.086610721,1.857741683,2.354747063,2.204154329,0.805619336,2.24240752,-0.966038155
140,754,754,1.928407665,-1.332090158,-0.944460248,1.352819921,0.54324744,0.170692325,1.09666822,-1.191826472,0.187438781,1.437442879,0.529043845,0.800135135,-1.602219342,-27.56379668,71.36373212,43.96053135,4.422034232,0.925944966,1.457588784,1.316433042,0.879432443,0.793633747,0.608432425,1.193395031,0.245278262,1.407070104,2.537396236,2.102539318,2.137087522,2.469091222,2.608341049,1.537859402,-0.294869832
141,1167,1167,-2.813343124,-0.69107593,-0.946946757,-0.085186434,-0.128762667,-2.084144075,1.2202508,1.815019274,-0.978000558,0.885668508,-1.112514323,-1.526444429,17.39481935,-9.992983596,70.08970964,-61.32686653,-73.62563234,1.164408248,0.455872872,3.494598454,1.070297939,1.590923888,0.865466675,2.75863968,2.839618331,1.724820348,-0.293566418,1.444481536,1.703399235,2.008470369,2.185537775,1.086037652,0.527129889
142,253,253,2.17808298,0.515761339,0.410324095,-1.663214902,1.678474694,1.826943763,-0.193115658,0.221099143,1.814136564,2.207490308,0.276643338,0.075464831,-8.163821685,-59.82695408,-73.86238991,-55.69411897,-12.05077469,2.864006066,1.133700159,0.392188562,1.620875084,1.512422815,1.804872475,0.899424653,1.523032093,2.148795668,0.540458085,1.19845483,0.816591373,0.488024749,1.573640829,1.174302478,-0.212937362
143,2127,2127,2.27765483,0.368848373,-1.373771417,1.512784643,-0.20199228,1.533191992,-1.200603638,-1.071502261,2.015688058,1.615573346,0.152740997,2.580908161,-36.61838441,-44.39824385,15.04181837,-63.63171314,54.14529126,1.472972297,2.717421159,1.449394678,2.518527954,1.923917694,0.949782608,1.198212881,2.282378668,0.817479204,2.86159429,1.872042579,1.915115017,1.472234209,0.435265336,0.377407241,-0.051912159
144,6370,6370,-0.385586443,-0.026560648,-0.568931648,1.991377742,-0.203617964,0.725858099,-1.771718406,-2.138421533,-0.208749783,-0.647709695,1.895396882,2.608759613,-74.5466697,33.02404633,46.98273792,-47.94094404,31.07700682,0.506353246,-0.334652848,1.939718256,2.070930013,-0.546248363,1.313616631,1.970557856,2.673118402,1.624481307,1.401040598,2.730763937,1.713224615,2.271791571,0.685659135,2.237207769,0.904785342
145,3807,3807,0.892962052,-0.371776162,-0.959199439,0.267780339,1.957906436,0.581497489,0.718555185,-1.044731403,-1.321741409,0.919312379,1.29600093,1.081743977,-59.11718078,-16.12467841,-39.22825235,39.27916268,-62.06140281,1.184138716,0.906490412,2.304874674,0.0462336,2.603621669,1.759192924,2.403818294,2.724807885,2.082621926,2.327806957,0.952678137,1.621333,0.376507336,2.464762043,2.352963383,0.101124704
146,7579,7579,2.075243136,2.077263682,-0.795165672,2.159491433,-0.44967401,-0.057328213,-0.96600934,2.403130574,0.709448822,1.625474262,-1.389212081,1.058615178,-70.37023846,-40.57217201,-61.31223545,-47.75392875,66.8190401,2.880199085,1.479341862,0.915152153,1.438640473,0.353757832,1.523035548,3.132980489,1.578016139,0.165415887,1.938273353,1.091329757,2.489208278,0.915775875,1.447186794,2.04171287,0.92983755
147,4608,4608,-1.068543092,1.213620887,-1.5859478,1.568958506,-2.219252862,-1.24681649,1.143709358,1.373373881,-0.790259446,3.084537961,-1.184793339,0.619121288,45.71568829,-35.99842915,27.08102739,-59.9542819,69.84603754,1.362125237,1.645375854,1.486312678,1.173160028,1.495522888,0.164914058,0.862497642,2.38958482,2.670731735,1.896873528,0.606587802,1.166807979,1.633280901,1.809677366,1.379362219,0.286626662
148,6740,6740,0.193887754,0.776736002,1.610585972,1.180236271,1.17815651,0.694805149,-0.958593375,-1.043993557,1.317369734,-1.483277802,0.286140643,-1.389994826,-40.65739611,-10.72244994,23.36703961,-19.39076614,-16.53560299,3.104491713,1.515880762,1.808502479,1.282525583,2.581103249,-0.091579418,1.855711964,0.994586346,1.615039907,1.596154816,2.101754123,0.767425147,0.389975447,1.653472313,2.708588278,-0.107992453
149,850,850,-1.091399278,-1.192315703,1.678026956,-0.990571466,-0.853367357,0.405263659,-1.905277687,-0.693130264,-1.687482253,-1.14985656,1.544550942,-1.379521148,6.521146659,58.1724375,-55.98718589,-20.54515109,5.46517672,1.286673532,2.06037895,2.442903654,0.363531619,2.64288199,1.962991881,1.111461371,1.553385125,1.220014904,2.6504602,2.1980427,1.528626792,0.807118631,3.185911001,0.602870259,0.189396644
150,973,973,-1.351299813,-2.094265806,0.433054319,1.143681268,2.308274825,-1.725802518,1.131900014,2.621921928,0.460744012,-0.990444131,-0.416471015,-0.228423768,24.87358231,69.28183589,45.76988401,-0.459725508,48.67369483,2.701941633,1.932580761,2.347407998,0.866081146,1.073130205,2.22281354,1.034976818,1.807277011,2.308712306,1.28325871,1.720666133,2.62541188,2.532811503,0.911447144,0.93227148,-0.33090401
151,2865,2865,-1.350487134,-0.646514425,-0.73052314,1.631574822,-0.515140658,-0.810048692,2.303593437,1.17621489,-0.701077515,1.971687404,-1.457703674,0.521478332,15.58607551,22.72997334,20.12367505,-24.19626111,-31.36683661,1.609125443,0.868803538,2.187638152,1.670705034,2.018873182,2.295845079,1.194079931,2.726858778,1.245711597,1.331646244,0.024936529,1.272030052,0.650715441,3.076593256,1.910795217,0.684529352
152,4107,4107,3.063685023,0.960801011,3.138657575,1.58222006,-1.164283906,1.019577231,0.761690525,1.238701315,-1.577172258,0.337469536,-0.034889373,-1.871674148,18.40001381,-11.74444601,53.8706,-27.34033857,-9.642485198,0.348965721,0.46858796,1.428444586,1.970572698,1.357747306,0.843700635,2.442401412,1.612336893,0.768983257,1.045669042,2.022008073,1.275106365,1.144110005,2.097068328,0.424188485,0.17580358
153,7182,7182,-1.370961029,2.654245773,2.488012519,-0.595599081,-2.264317486,-0.544389326,0.491979439,2.012392943,1.187286987,0.031565202,0.380820677,-0.841006144,52.77859332,-1.258741934,-57.72893195,56.28237944,68.81355707,1.059996884,2.272747087,2.412716705,1.680312733,1.111805912,0.658467535,1.182069922,1.129403945,2.104346614,1.819923296,1.160472042,1.069944073,1.965549633,1.890325998,2.164414772,0.281682176
154,7048,7048,0.496445546,2.385317634,0.872344131,1.507420655,-1.046762406,1.894982425,-1.757837009,0.188993234,0.863125572,2.344872752,2.820485524,1.036386608,20.22109587,-62.82428374,37.05953036,-28.20291037,70.92688083,1.791928519,2.260167088,1.010760127,1.922529493,0.9368772,2.63770193,2.344087285,0.042352758,0.87019095,0.260001734,1.917263519,0.607846899,1.811988876,0.655805598,2.21824977,-0.40727067
155,7121,7121,-2.32767819,-0.796699288,0.706192501,-0.008877056,-1.152898572,1.420689303,0.151322914,-1.128558962,-0.937007325,-2.240688435,0.423417416,-0.721512743,-59.89209374,29.9351344,-17.95474264,-35.4981132,39.31834008,2.634647852,1.280117446,1.240328814,1.161862432,2.271630418,2.519997689,2.210370808,2.251348624,2.188088244,0.859068496,2.778362193,2.114289628,0.830114189,1.813315838,2.580121644,0.575245881
156,3991,3991,0.243079865,-1.602609083,0.634585572,-1.514494467,1.368450184,0.623690106,0.206661109,1.133125122,2.046356503,0.967570351,-1.294530624,-0.229636919,59.45252377,-9.281912158,14.58663747,20.04598268,3.932764508,2.275039029,0.250812635,3.160003589,2.194576373,1.725650472,3.859714356,1.60093524,2.091784559,2.944880021,1.296430434,2.975544092,2.143405158,0.988647129,1.348055231,0.665739573,0.276333385
157,7888,7888,-1.853759586,-0.006125624,-1.528322905,-0.166166923,2.077371641,-1.069439215,-0.271749315,0.44330642,1.389256871,-1.269191929,-1.368267693,1.455971454,75.30650007,31.64346013,73.3710758,-53.09887529,51.49940773,0.985740297,0.851653699,2.7135725,-0.844119298,1.214122929,0.674681543,2.96160473,0.702444965,3.297626315,0.947692234,2.154518532,1.875065616,1.818814163,1.689182531,2.257255617,-0.268404764
158,5513,5513,2.480510774,-1.335295053,2.242293215,-0.842822865,-1.094996571,0.186849296,2.157087909,0.934844819,-1.743895196,-1.392577761,-1.438818529,2.712096081,42.47802095,11.1441927,-0.530125115,61.39895603,-2.205302901,1.960557766,2.305818048,0.522939186,2.423644489,3.530227674,0.834655465,0.151758315,2.342444186,0.63779721,1.755287576,0.719312682,1.500575414,1.224348618,0.793722143,0.717705728,-0.849360658
159,7325,7325,1.194646207,-0.741243684,-1.283796399,-1.441469806,1.852470509,-1.318172479,0.94973816,-2.195120998,1.868695959,0.17304051,-1.731250331,-0.432307137,-29.72154171,-22.06428383,-40.80661382,-71.92643071,46.38460275,2.880797754,2.416120526,1.70887501,1.309917496,2.956130145,0.465667516,2.314726592,1.405099965,0.915165552,0.606505609,1.694354593,1.764443061,1.806746212,1.640720833,0.285505745,1.010067925
160,2572,2572,2.242852463,-1.447669476,0.257955505,-0.375482483,2.20716657,0.765588981,-0.25261777,-0.792509769,0.203243422,-0.327020375,0.210702856,-1.752652744,16.62527171,-52.10936844,49.50669262,60.77338432,-17.60248211,1.765480847,0.715503596,0.889420433,0.067096532,0.8576008,1.487031017,1.048966106,1.834993394,0.329564885,0.444690938,0.639443428,1.991209002,2.276033293,0.036252185,1.014574836,0.581449382
161,1477,1477,-1.911820704,-0.852348667,-2.089710589,2.990524021,0.01610724,-2.785337579,-1.438804628,1.961000872,3.139136298,0.055234146,-0.334493683,1.911534036,8.780381413,-58.13182013,-52.68402158,-69.4724976,35.6922286,2.738324228,1.891183824,1.872272177,1.69437643,0.73041855,1.683865671,0.342812737,1.24305322,0.830050418,-0.256538349,0.615294063,1.913233393,0.841466048,1.697617067,0.514175757,0.327098531
162,97,97,1.716139752,1.747573557,-0.947288834,-0.795127284,-2.283386178,2.04195037,-1.682520374,2.126118978,0.629802883,0.316468314,2.072233491,0.525429546,-19.0422859,20.53946563,-40.79972624,29.08270464,-66.54980229,1.909374636,1.323105125,1.629903511,0.092302517,1.03070914,3.145448891,1.087287564,0.363895356,1.030705373,1.141388741,2.338843657,0.839726933,1.853434498,1.261730965,0.583637303,0.703995497
163,1928,1928,1.911265682,-1.527385766,2.5478376,-0.962582415,2.256999924,2.368631956,1.470757405,-2.431913488,0.10061326,0.73785022,-1.285113353,0.691254194,-69.58876511,26.03172005,-37.84944054,10.93067423,-65.33600155,2.458039978,2.13694498,0.906023385,2.894922654,0.785646998,0.729101197,1.48801033,2.112221363,0.196633266,1.486989852,1.97174286,1.440751444,2.748233536,1.446328995,0.992579333,0.305696488
164,350,350,1.427729894,0.625078682,-0.422645,0.881116402,0.991607682,-0.670348355,1.005500954,1.354792042,-0.030226427,-1.504064752,1.661201456,1.324957242,-55.04418306,10.61813447,-46.47507379,1.987192337,-57.29280542,3.088857846,2.487471128,1.844432988,1.12931073,1.277078932,1.695844305,1.111578401,1.669533249,2.644994155,0.603867028,3.181712024,2.372594667,1.580573076,1.94333917,1.272317466,-0.073500208
165,283,283,0.740992418,-1.622632359,-0.039741335,-0.344944072,-0.921497407,0.218758197,0.262819036,-0.867235247,-0.007563145,-1.887545115,0.691132808,-1.570143351,42.5581471,46.84310047,46.44461077,31.1125986,19.15125575,1.046318918,0.602428389,2.122417394,3.435063781,1.893007168,2.883788792,1.806414599,1.861621659,0.484457195,0.676340885,0.573926489,1.421800591,1.625683162,1.162273471,2.541990884,0.361370916
166,783,783,-2.350905556,2.820000304,1.70293177,-0.238530798,-1.241296547,2.328053329,0.402719758,-1.77072868,1.080888438,1.184376939,0.862679522,1.647629077,2.450787391,-43.86743537,-22.14568823,17.22805462,69.92650413,1.785976032,2.339828105,2.090502549,0.523648707,1.849412287,1.244384188,1.422136989,0.223376483,0.677203263,1.555896002,1.041088754,1.372806101,1.82137118,1.976698842,-0.09857721,0.359238118
167,4196,4196,-0.699846657,-1.48697469,-1.889361452,-0.41725592,0.068506703,0.967454641,0.132508179,0.805311976,1.289677402,0.882400427,1.512534378,0.801303669,61.99848489,-14.9355848,48.18034744,31.23370663,-7.319734841,1.507751324,2.291165528,1.006931953,1.862467806,1.981917249,2.494161387,1.698847575,0.858190971,2.645754296,1.496325402,2.22583671,2.200317384,2.699817532,1.643713533,1.505367839,-0.469354771
168,8042,8042,-0.620187307,-1.880129747,0.708518721,1.559507108,0.086544261,-2.709899453,0.313515911,0.297672157,-0.972688268,-0.572607871,2.639135797,-1.934363112,-25.92450342,-59.82234298,15.06495646,54.81201868,-61.60826025,1.82179108,1.510148602,0.200314528,0.363818214,-0.320481931,2.637412713,2.413525273,1.977770892,0.790419715,2.38676447,1.201211091,2.695216691,2.140580927,0.806546615,1.057560982,-0.310889188
169,3718,3718,-0.874287131,1.503173193,-0.015655498,-2.131091007,1.185820946,-1.125180818,0.518005876,-2.147302377,1.032336455,-0.56729095,1.174626451,0.506111217,-5.467853756,-39.23079427,-17.84942178,12.29667316,-53.22800389,2.9220986,3.502195049,2.093642459,1.081437822,1.580388675,2.993029408,0.186176391,0.078975762,0.325631238,0.987786888,1.666479908,1.304338756,3.467464231,2.970288834,0.6178914,1.272768843
170,4087,4087,-0.82310706,-0.415014575,0.223156091,1.355888662,-0.192280445,2.995954117,-0.999043415,1.836722597,-0.653201163,0.059020081,0.655251349,2.293140936,-42.40635593,-64.33699601,-54.70055858,-21.04087108,27.71837488,1.292959043,1.346407507,1.127536922,0.97822551,1.61107409,2.871896636,2.821797295,1.978983834,0.276131827,1.904356405,0.169945185,2.723479258,3.164804479,1.816720971,1.800161574,-0.114055987
171,236,236,-0.6009155,0.960445914,-1.035591261,-0.730969897,1.083699425,-2.362551909,-0.470699923,1.834463957,-1.388051342,-1.244504621,-0.922073031,2.108488436,58.52756198,66.1087008,-48.17417784,9.170599246,4.915335312,1.380722686,1.454020688,0.252899572,1.023520337,1.311921966,0.694285412,2.650960109,2.240991487,2.48047124,1.120675504,0.417401971,1.619539495,2.077222527,1.980317436,2.467652001,0.168568972
172,2705,2705,0.591734571,1.400583909,-1.207068585,-0.898038148,0.752355473,0.461147086,1.5651706,-0.055122754,-1.119240779,1.388987262,-1.144165824,1.593400313,-1.662084173,-54.3585511,-11.4225838,18.13313555,-70.20872436,1.908522471,2.797868992,1.015361866,0.789736015,1.157693701,1.481852552,0.471859849,1.817234349,1.738221839,1.317968884,2.061031963,3.261230445,1.792660326,1.469459089,1.739479355,0.664639278
173,524,524,1.46544243,0.130072175,1.428360699,-1.077834999,-1.062251957,0.538887842,-2.18982017,2.24687019,0.77214531,0.129022697,-1.073957018,1.50485283,-4.789352845,22.80012558,-60.97634538,-44.7675766,28.30023259,2.12249564,1.698249725,2.416131803,1.019876088,1.812666147,0.743683013,2.567312831,1.288722125,1.672793543,0.80158013,1.526147286,2.27473785,1.896691741,2.188514432,2.023820141,0.108356265
174,6785,6785,-0.034561168,0.738732322,-1.782076454,-1.257376287,1.132169409,-0.672937316,-0.960557308,2.05629171,-1.608251718,-1.182391261,-0.083845321,0.706655945,31.13669751,-16.46295494,-59.61217853,-32.08762382,32.71934375,3.713603478,1.78693809,2.192988993,0.447635264,2.199948188,1.514327358,2.703907713,2.810232037,3.244330891,2.500226263,1.013286549,1.204511516,1.392267852,1.82299815,1.784649259,-0.214518326
175,4151,4151,2.408807276,1.699306957,0.764759608,0.69408619,-1.32887494,1.569534798,-0.300449516,-0.703297975,2.829659733,-1.202504199,1.217144202,-3.206007541,60.77473705,36.08870135,-25.55673194,72.05600626,26.29066061,2.970791807,1.62727491,1.247977766,0.527467566,1.81011242,2.035256152,1.68047825,2.217163136,0.437148412,1.395944342,1.81566145,1.982638602,1.91822856,0.911496693,0.047190969,0.890201566
176,1288,1288,0.445636687,-0.09276803,-1.452005766,-0.180734684,-1.055461426,1.409439643,2.206936589,-1.191412478,-1.771804699,-0.653692735,-1.827775204,-1.309348894,-13.37328482,-17.11651024,-4.665805406,-8.904063972,16.07677578,1.86731216,2.244612364,1.834265794,2.223482836,1.526336225,0.355626584,1.426049815,2.032134049,0.358905326,0.950976933,2.579637471,1.681712482,2.717408471,0.798988945,0.766448244,1.414512013
177,4635,4635,2.189257391,-0.404956284,1.369032516,1.722308842,1.136258569,-2.363003531,1.515317062,0.709823946,1.269832908,-1.396060073,1.94211373,-1.33556342,-26.36875181,31.6494716,-34.12222133,33.593111,-24.04965606,2.3362278,1.747282429,1.107407828,2.972437669,1.793911386,0.067934092,1.159394954,1.366473339,1.843183287,0.208793248,1.888567115,1.578728474,2.557361804,1.780445945,2.778372239,0.160622467
178,4261,4261,1.82925437,0.140528746,-2.220556398,0.672622507,2.212197812,-1.107403088,0.956679381,1.252910552,0.013897223,2.603948394,0.531253977,-1.412866519,2.509321386,13.53203128,-12.60649654,56.69912575,35.39284975,2.23942713,0.867574761,1.409400869,0.901516761,0.098512826,1.838260203,1.581706329,0.837355502,1.882110015,2.067180726,0.955203716,1.033325238,1.908772,2.973958768,1.377033373,-0.028291454
179,4935,4935,-0.353736645,1.613144612,-2.242935331,2.079851985,-2.198400691,-0.156485854,-1.799041845,1.999707558,-1.413810639,-0.913239746,0.428569709,-2.482923384,62.09787214,4.349614192,-59.60828983,-1.608214949,54.48377748,1.98990543,0.678519714,1.436277388,2.395723043,-0.272421476,2.225916333,1.207785981,0.527602536,1.138264786,0.761271081,0.779294431,0.573631694,1.815750686,1.741826936,0.129908455,-0.232598659
180,4267,4267,0.767034544,1.733197891,1.367146186,1.363186994,0.909663686,0.808269722,0.099528081,1.559312203,0.246466308,2.089672435,-1.638362782,-0.306067897,54.47789491,35.86033683,-62.19417635,-37.67781919,-42.42868457,1.546107002,2.021050986,2.920233749,2.186220056,2.411322369,1.427789101,2.270791299,1.008380766,0.523261747,2.689762489,2.069674491,1.649024961,2.526253534,2.845671108,0.700074199,1.47729659
181,3856,3856,0.66603593,2.289289746,0.288819871,0.281117965,-2.104120195,-2.023539979,-0.812942704,1.262569962,2.40495549,1.564663817,-1.912950841,1.197628304,-68.2987436,27.42114291,-7.120802845,-25.75163318,50.74509161,0.990933758,3.468186339,1.396579722,1.279821796,1.871718612,1.246626142,1.158343299,0.61253407,0.376815324,2.674624097,1.16151803,1.864805131,1.983068932,1.929240432,0.373753349,0.610192036
182,4337,4337,2.294551113,2.203930196,1.153772287,1.609931047,-0.731045035,1.026480262,-0.439716881,2.25633839,-1.709113081,1.026870026,1.995615804,1.992968094,68.27890154,-74.45666311,60.48181683,-67.31982988,43.73536197,0.904729918,0.846706659,2.006900277,3.102016852,0.378201049,1.463406343,0.875221848,2.189279854,1.506601311,2.068157805,0.344309529,2.4649886,1.997460284,1.083886863,0.360424174,-0.062332853
183,1730,1730,0.825673011,-1.992507505,-1.672340106,1.347267426,-0.209691572,1.107885379,2.303448444,-0.163441265,-0.264718226,-0.506677454,-1.966013363,-0.540747597,-40.64615488,-21.9190224,14.51342894,11.92512729,48.97998556,2.659612511,1.533191465,0.920347774,1.038500151,1.398234511,3.323284735,0.621686006,1.608537815,-0.025916804,0.332286872,2.41839826,1.771253987,1.330146504,0.069033651,1.926824023,-0.000573096
184,3498,3498,-2.42884688,-0.306896233,-0.164746148,-0.575578518,0.582397418,0.14412707,-1.063623544,1.747545356,1.693775993,-1.543708638,1.012394509,-1.181171863,-12.7635962,-71.6339479,64.64627772,-71.43991599,-11.73827037,0.439172269,2.768533749,1.886751501,0.722589173,1.458603931,0.865043839,1.916454759,2.31953658,2.303724106,0.753251923,2.87380592,2.501301454,2.198949511,1.56282658,1.558612701,-0.223926559
185,1185,1185,0.369553885,-1.565477825,1.067827327,0.01240032,2.031171195,-0.696849024,-2.103878679,-1.252818392,-2.161103917,0.951330327,0.876892015,-0.982767119,-12.90280138,29.4735654,-11.70515154,-60.52406006,-29.14892992,1.934136484,0.864883999,1.054489112,0.656182729,2.6497299,1.795603694,2.108233116,1.25274002,2.591895061,1.651336319,1.636518375,0.020278391,1.804455083,0.305164321,1.334118453,-0.612815814
186,7196,7196,-1.367534893,1.299668482,1.974155487,-0.557391185,-0.925713042,1.257437509,0.388374407,2.418287606,1.219468353,0.34490938,1.236387952,-0.940895914,14.11720884,13.17257686,27.73327654,7.870064283,64.90860925,0.992756549,0.944336888,2.093929331,0.943692617,0.384214034,1.64479298,1.728649198,3.188669454,1.797009865,0.88254865,1.984326868,2.36538438,1.538785732,1.79080578,1.833147672,0.337838962
187,5921,5921,-0.083444015,1.737708265,-0.043111265,2.154295035,-0.316991891,-1.141478926,0.204231118,2.021524177,-0.501907161,-1.310599234,1.984470116,1.690836506,56.88480412,-11.70281053,36.14054455,-7.068236408,-11.31628044,1.677492287,1.451494574,0.468667022,1.616432308,1.130240605,1.965364664,2.094187302,2.425259691,2.725163387,1.812979769,1.71648349,2.70975471,0.833673532,0.541456933,1.303791083,0.020696268
188,5698,5698,-2.105796354,0.948868085,0.835416946,-0.055364445,1.16367561,1.102388963,0.335693285,2.455612166,0.004942972,-1.905618565,1.431172874,-1.313826085,-70.59040737,-9.55928605,58.18823088,-68.35561982,-49.85265028,0.060323943,1.469972553,0.569349048,1.690135657,3.27285555,2.896430967,1.868157965,1.481483602,0.885097409,2.034200607,3.0553977,0.936939169,1.064641182,1.714597539,1.20859763,0.87937253
189,5270,5270,1.194475143,-0.029976601,-1.971989308,0.524371099,1.963321127,0.169842498,0.867314852,-2.329879963,2.992312483,-0.431906431,-1.085931087,-1.819189955,1.588846393,-72.72852738,36.70141769,43.5900655,-1.977788187,1.272067762,0.563978362,1.405918786,1.455027653,0.332982806,2.016064821,2.264245014,3.027196962,3.137922538,2.56135733,0.859011995,0.373752817,0.603729095,1.314703663,1.525117092,0.065229857
190,6562,6562,-2.90664423,1.904900652,2.411485184,-1.42130266,1.734208275,-1.94065533,-1.530314931,0.586534153,2.264348254,2.201392105,-2.231791312,-0.356394521,-8.298378943,-22.18546839,44.21721227,27.62395713,50.57598488,2.139396351,0.500218978,2.345830671,0.461887206,1.629018425,0.131874731,1.511842943,1.069033803,1.425387535,1.053111792,2.944544699,-0.093904497,2.606095992,1.830044271,1.108498748,0.673103307
191,1743,1743,2.954074618,0.202129188,1.393085148,-0.110361256,1.010555725,1.690282647,-1.256600727,-0.059683815,0.101827912,-1.224998891,-0.680731486,-0.847279068,-3.710690543,42.61599007,-2.88942613,30.67518356,55.11986229,0.688050759,1.135712454,0.62952694,2.394278518,2.281865001,0.66379757,1.421368937,1.871522348,0.293331501,1.078369279,0.860051856,2.490750564,1.041115377,2.071709196,3.343142819,0.469037311
192,2683,2683,-1.929493147,-0.652877871,0.476665241,0.347603731,1.875214918,1.362445073,-1.28854228,0.342699767,1.330610894,-0.405335607,-0.548950098,-0.53845357,-25.64700215,-12.77602922,-0.316162797,-61.02396345,57.42540526,0.317430756,-0.001614625,1.739267028,1.137973026,2.705471149,1.978103223,0.388794933,1.872017514,2.809424439,2.380379118,2.086014697,0.933494219,1.564503155,2.090384145,2.398039057,0.414707877
193,5275,5275,-0.274009059,-0.824560549,0.690516146,-1.138635257,-2.167953384,2.236405974,2.429027823,-0.604569193,-1.19474503,1.468207964,0.527667248,0.245712929,64.52898915,20.89288666,37.28575856,12.1756375,-43.28300916,2.277042134,1.699328279,1.531353518,2.775470103,1.859928335,2.351149816,0.935435209,1.545925039,3.259753237,1.706031929,1.877449045,2.021580656,1.596903502,2.990582784,2.136012584,0.345058025
194,7272,7272,0.28496502,0.113101563,0.995459836,-1.77753979,-1.679637359,1.69971812,2.396705322,2.228438841,-0.654505481,-0.722612064,-1.888682659,0.093686808,20.65104763,6.600810409,3.354722584,-73.24927911,46.83119118,-0.417597498,0.484015559,1.130423009,1.482622883,1.216038964,1.04316898,0.915160132,1.241035843,0.412089591,2.5118983,0.963995506,1.377195728,1.007014991,1.057853665,1.144391837,0.102268279
195,7137,7137,-0.180340571,-1.726747497,-2.213529662,1.557497395,-0.786160869,0.784272705,-0.868679191,2.725223614,2.161027007,3.095178151,0.698011079,-0.134550018,63.22764685,27.06238895,-43.09154154,13.70388387,-48.93449256,2.541449691,0.747272362,1.796404264,0.847892952,1.154070986,2.11230313,1.565061233,2.571881325,1.83640147,1.504083467,1.438902699,1.141749293,0.769893084,1.035471686,1.961882594,0.13017608
196,5031,5031,2.340278556,-1.89003974,-0.451054729,1.324786921,0.763447507,0.986430906,0.198069151,0.940450726,0.063492883,0.589425765,0.433171751,-0.971760396,-24.838561,74.4349722,-9.045581426,-27.93955295,-29.78597414,1.243397207,2.884904737,0.021720964,-0.329061309,2.350017136,0.500875663,1.961665037,0.452477668,2.026104222,3.285137174,1.14909939,1.053147974,2.329236926,2.514889906,1.42936219,-0.33207002
197,7740,7740,-0.051720514,-0.371203201,-0.182738999,2.466051142,1.391003606,1.065644623,-0.358939,-1.479289989,2.795667138,1.515974977,1.726467747,-1.7861949,27.33081338,69.14655595,-4.734085992,48.91161027,-61.00748744,2.711626947,1.320358791,2.26008293,2.508661085,0.46638015,2.426675026,2.390363855,2.717166323,1.290219059,3.056527846,0.616118088,1.445568351,2.232608931,2.313584696,1.723994077,0.805693019
198,7715,7715,-0.504153267,2.158245147,-0.578186918,0.605882077,-0.738577154,-1.929804193,-0.786721517,0.411412512,1.330761074,-0.380098261,-1.711360612,-0.521917901,27.97027744,-25.36990762,57.08763939,-39.90399739,28.36545498,0.997855882,1.381160304,2.433619061,1.333312436,2.811017529,1.527888705,1.414176168,1.327760913,3.234607376,2.295957734,1.1978408,1.51844634,3.532060897,1.805316229,2.701356688,-0.081798602
199,7580,7580,-1.732125468,0.162688296,1.431401592,-0.636442364,2.328201418,-1.13059446,-1.616827968,1.107999498,-0.137059692,1.777991466,1.835735279,-1.043106558,-46.5447265,-44.67954892,-22.11700683,5.501567414,63.95329462,1.541473171,2.663245088,1.042651884,1.391018515,2.337157809,1.538006683,1.557636694,-0.077366782,2.64481049,1.842132732,0.653734644,0.937516522,0.771489716,0.858890987,0.764123859,0.576143275
200,6577,6577,1.467314906,3.329356608,-1.524410231,1.746415571,-0.834453632,-1.276253456,1.124077521,-1.033892427,-1.997322815,0.56345812,0.91778903,-0.497871432,-16.86465373,70.85662003,13.50160513,49.56654286,-60.86067326,0.895123998,1.967340201,0.866579268,0.112420226,2.498159776,1.982828504,2.001630982,1.350081233,1.468492097,0.742709396,1.526512027,2.691324767,1.668436491,1.219986191,1.969781714,0.136915868
201,1306,1306,2.428986127,-1.456705894,-0.348378239,0.930253267,-0.129754717,1.641923661,-0.828067055,1.542236218,-0.296144854,-0.938744382,0.682849978,-1.001470288,-71.49582581,-10.61316622,37.55988587,-63.77174238,65.56496533,1.917687138,1.746617997,2.326212756,1.665455909,0.986101762,0.79778509,1.436227187,1.376648521,2.800447413,3.000466345,1.528375472,0.437308489,2.351018631,1.452034775,1.040191638,0.374864477
202,7405,7405,2.234626662,-0.769966249,0.766464203,3.499466809,-0.270025869,-1.27540821,-0.400329008,0.486009833,2.198701131,2.22872306,-1.099961897,2.450772238,-73.04362195,-9.696730519,-12.7988376,-38.38078196,17.20556583,2.252375978,1.780361683,0.255160702,3.161771839,0.710691907,2.668128223,0.843485327,1.801156475,1.599776835,1.607351675,0.130829944,2.005822053,2.064717252,2.340101307,-0.160022227,-0.07709215
203,4276,4276,-1.713074357,-1.400642631,0.987003565,-1.227005337,1.981674474,-1.150009051,0.685908521,-0.158549096,1.097282084,0.074142486,1.219733149,-1.85867053,26.43360181,-63.51698489,24.09213508,27.28806922,-32.41074241,2.650028678,2.72030656,1.667440502,0.553128736,1.91007371,4.301262312,0.920037987,1.915114167,1.946593191,1.008100139,1.855125391,1.032210965,1.739454951,1.074403148,1.232908769,-0.191923577
204,3324,3324,1.843702437,1.360802798,-2.055590935,-0.675881912,1.250979246,1.325821676,-1.80670543,1.533414005,3.452707077,0.992365917,0.788609322,0.607465481,-29.42659728,-59.31175008,-47.8561548,-40.23700702,17.06220648,1.63251036,0.606738843,1.556971207,0.686979792,2.221817572,0.202759721,3.320890866,1.667410932,3.10970972,0.019146126,0.776160754,2.211674208,0.326429125,1.186750206,1.952479802,-0.015099374
205,5035,5035,0.219482951,0.748026787,1.892712752,-0.321413606,-0.187691786,0.724999268,-0.336180952,1.008795083,0.502162217,0.729492133,-1.644173249,2.209465161,38.75716424,-61.41142528,47.5364321,31.47586,40.75752393,1.932942185,1.211286127,2.085016238,2.073707103,1.265983498,1.625333002,2.436177327,0.796952429,1.512037903,0.805365348,0.67090935,1.098245693,1.578271376,0.40435028,1.718596156,0.325266117
206,3802,3802,-1.683778929,-0.877667639,-1.1673833,-0.245411044,1.266616624,-1.57272018,1.761657733,-1.817417451,-0.548604938,0.341242178,1.337090138,1.429665577,41.5546996,-5.250999153,47.35330173,56.15438096,28.2075779,1.581085096,1.654316556,2.75484026,2.320279379,2.432198574,1.009911224,1.516850109,1.195722874,1.387760042,-0.276344958,0.638230885,1.818657544,2.0152142,1.354396043,3.036761399,-0.320257354
207,5050,5050,0.587627224,-1.198774774,-0.198998546,-1.135362777,-0.666798637,1.893813826,2.928202413,0.76818421,2.428535656,-0.521689591,1.862020967,1.367952416,-50.96605564,35.53063463,-12.69782627,-0.1820111,-22.03826832,0.354535988,2.323915033,1.789208764,0.701687655,1.083295944,2.464531079,0.744691624,1.0932237,0.367701761,1.081942012,1.467545677,0.453531655,0.819548881,0.415870429,1.171009509,-0.002435026
208,50,50,1.35660521,0.128392282,2.57822988,-0.063133019,-1.413385766,0.698811539,1.937077511,-1.507044768,1.760135619,3.096321843,0.214015545,1.72988873,18.3860295,36.69056039,-68.40691895,-23.03897638,19.25043118,2.020864841,2.350176719,-0.253211517,1.176342094,1.259634656,1.768136085,2.305091088,0.653995508,1.843273574,2.303578009,2.379966434,1.920816206,0.612620506,0.552614916,3.668647862,-0.177306063
209,3446,3446,2.650668711,-0.817842808,2.218631517,-0.690499299,-1.43776975,3.254393694,1.259512131,-0.3148376,-0.143952848,-1.322783186,1.647824488,-0.745127313,-40.3603674,45.88224388,-30.26962534,22.53173479,4.649943798,0.653362298,1.161401197,3.859680371,0.655965876,0.928598717,1.676604649,0.626218225,0.626006367,1.499735869,2.123488847,2.657009146,0.982630313,2.776752761,1.484758505,2.266491962,-0.546108591
210,7876,7876,-0.628526397,2.343873007,-0.30649835,-0.030087253,0.950567147,-0.734760795,-1.113871461,0.202129876,1.603789641,-0.058997726,0.869065136,-0.526559837,-68.0141841,-18.59561119,-1.590866652,23.90559385,-33.88655186,0.404046462,2.301117113,2.792904514,1.260454165,3.058173683,1.615225398,0.796037205,2.544515387,1.363632649,2.995867275,1.644452687,1.378344606,0.768079016,0.801740915,0.854241179,-0.880370174
211,4393,4393,0.351360499,-2.458005577,-0.544385417,0.746554372,1.573324955,-0.550724722,-1.633943866,0.169345493,-1.407977299,3.073874195,-0.671201852,2.179727035,14.33705761,63.52214991,69.67420141,-56.30371653,68.14643633,-0.302617101,2.261270357,0.28766468,1.142594067,0.727806266,1.65134688,2.187701493,2.589833952,1.01435107,1.246820032,1.850163745,3.315995288,1.16239618,0.502746321,0.80500665,0.161932786
212,7100,7100,-1.101528174,-0.967803338,2.265545307,1.627853098,-1.800124726,2.068101926,2.451467461,-0.192233525,0.725785445,1.131542287,-0.837985587,0.844705225,-67.21001263,-17.79460392,-4.636231111,-52.79014889,-71.53701573,2.778719463,1.669563457,0.252758283,2.574556186,1.038988606,2.072973907,1.54468609,1.630269198,3.23324437,1.56181011,0.51454423,2.356352427,1.202953846,1.911983521,1.727311905,-0.983022658
213,375,375,2.816713177,-0.029542239,0.858633911,-1.892388067,-0.877593861,-0.195184623,2.025095797,2.717307307,0.385649423,-0.360518891,-1.996382616,0.877491536,8.058745298,71.2130843,-31.39535624,-19.24420357,58.59258031,2.390833802,0.76957634,1.397676166,2.169267192,2.873287044,0.494934925,1.285892987,0.396052709,2.229486269,1.618564178,1.39131943,1.574899012,2.037302212,0.283126327,0.693950701,0.752951726
214,6363,6363,-0.244066297,-2.516409365,2.245269697,-0.640873481,0.627809811,-0.090033372,0.238331804,2.899030543,1.069158789,2.955810181,1.25867989,-0.931241971,66.80010061,55.60446698,-36.52347601,-23.18063848,60.16322157,1.484752335,2.990517716,0.989201094,1.49206049,0.943085461,2.458478354,1.897096445,2.478849639,1.684221018,0.749423263,2.620451453,2.431419309,2.569845354,0.514310457,2.104528803,0.134065187
215,2900,2900,0.642220099,-0.181360923,-0.505013605,2.106423413,-0.040359665,0.877387132,0.198626466,2.508522834,-1.812652641,2.405323636,-1.408651485,1.514468728,-66.90654414,-63.7064672,61.76442841,51.80131683,66.61794324,1.635299638,2.982647361,1.264634478,1.635931987,1.256004142,1.78830003,2.063465187,1.414096517,1.096244483,3.183036518,0.900637806,1.076555788,1.430289872,1.993717173,0.963260665,-0.324737237
216,1611,1611,2.216599036,-0.165863578,1.181906664,-1.315347393,-0.271557379,0.413424915,-1.129072315,-0.834544144,-2.020394389,-1.792381013,1.068683946,1.771658806,-45.71692964,-42.70013958,71.56234912,5.08761285,55.65043453,2.611564331,1.328815965,2.608295003,2.729537462,3.151627309,2.848063817,-0.050133711,1.429899422,3.167899283,0.976645545,0.620867455,0.672162338,0.468916251,2.159922791,1.639916368,0.877858912
217,4681,4681,-0.63783118,1.761651274,-1.379513728,-1.163668026,-0.697035521,-1.423048727,0.377962419,1.960756336,-0.560256409,0.542542268,0.189039863,0.409112909,-71.49426242,-42.5244407,-41.1932306,-42.88082169,-54.88685238,2.176395255,0.916953051,3.198866551,1.462835278,2.167042437,1.85376213,2.497605495,0.454775969,1.275943682,1.123900697,1.574732356,2.128296895,2.021681545,0.94460892,1.251343505,0.989233727
218,39,39,1.181402786,-0.78713734,0.846910623,1.876742566,0.659626343,3.110511764,-0.46190022,-1.025789501,2.701246116,2.271880321,1.804725015,-1.268161911,18.61866648,16.38413023,34.18283919,46.58033246,-25.02728373,1.563754525,0.803577422,0.909711045,1.397385722,2.136755065,1.474324937,2.905202425,-0.095745657,0.441934305,1.574071775,2.91963104,1.821309936,2.007995141,2.054408042,1.882598921,0.058000415
219,2204,2204,1.403584923,-0.71093386,-1.106315024,-0.344100447,0.52683656,2.75527221,-1.104725333,1.177287895,-1.977421324,0.419658086,0.658613319,-0.191323924,-29.2506941,-37.89794741,-61.60804012,65.38777254,-72.43364674,1.981302603,2.844536168,1.366374624,0.105921135,2.080426391,2.95577314,2.183751385,1.255876078,1.581471057,0.618542094,1.845235779,3.230361332,1.74693761,1.415290042,3.010109562,-0.137836119
220,3257,3257,-1.99322942,-0.733735251,1.210714972,1.32187008,0.681714629,0.001612775,-0.833991455,0.905996416,2.172396274,-1.402328673,-0.476498998,-0.005986414,-46.94907648,72.11995226,-61.74620485,6.585728828,12.09743566,2.499817231,0.786287769,0.685990132,3.2086067,0.705285689,2.477528892,1.35842524,0.653520382,0.469356871,1.287457036,1.198044275,1.852701152,-0.267373453,1.0232215,3.060871217,0.236779547
221,460,460,-0.999841895,1.399798774,1.874648227,1.441523727,0.734948896,1.638128612,1.909946363,2.558063707,-0.286261909,-0.78326309,1.875827919,0.539833153,63.19267349,54.28100823,-17.15887673,15.74759516,-21.80894244,2.36237856,1.925702724,2.439639132,1.11936345,0.455689563,1.915168638,1.642649524,1.205640006,1.1549174,0.66796614,1.223214195,1.472336412,1.919422859,-0.030674817,1.383693512,0.769038172
222,6756,6756,0.419343357,0.653890382,2.050778602,0.224621771,1.656461479,1.394262003,-0.132502074,0.946071538,0.620276929,-0.652911504,-0.085521373,1.648408274,-43.72908054,58.31813311,15.19024662,50.29428271,13.68658623,0.453375635,1.636383937,0.456172662,1.843148945,3.250852693,3.126519758,1.260625082,0.223923753,1.916034241,0.334169557,2.55934489,2.197072496,0.785791181,1.926025004,2.679898197,0.385772319
223,7894,7894,0.519645526,-2.849569448,1.294561459,2.553298859,-0.652189469,-2.500733645,0.072565852,2.891868326,-0.18406334,-2.651627096,0.712557585,0.957570765,22.80639774,20.52218434,54.21103876,-49.09118528,-26.13478679,2.34784789,2.675383735,2.364065272,0.615775937,0.572500377,1.780111648,3.113465686,2.705591885,1.563983697,1.881225473,2.110921637,1.788519039,2.288191541,1.0116455,0.48381129,0.822478861
224,2296,2296,-2.546974864,0.536920122,0.837296686,1.868300842,-2.740226717,1.960678881,0.78701593,-0.151908449,2.140385307,-1.161595093,-0.957631467,-1.663073066,-14.15401206,-45.18243265,24.02115079,-57.05196665,-14.47225869,1.320385727,2.338055763,1.162925888,2.322339036,2.446255447,1.61303296,2.579719043,0.168454674,2.044653978,1.884102402,1.793083972,1.51543389,1.11989281,1.949056689,0.961956177,0.231721394
225,127,127,1.540712399,-2.166660718,2.486128498,-2.310886816,1.062801229,-0.070153946,-1.596165783,2.129623406,2.146446723,2.414117022,2.110286005,0.923391827,-42.08812381,51.23156646,67.23743575,36.76823221,-29.2776675,1.800684031,2.268571641,1.706459755,1.806932928,1.086715783,0.758682364,0.773580898,0.850232383,0.912719315,1.888974004,1.340305924,1.076358628,1.169180113,0.319742355,2.974117227,0.146665475
226,4198,4198,1.847950474,1.472952419,-1.8435965,-1.214760514,1.906731039,1.750057474,-0.660854774,-0.581393654,-1.189913183,1.066929143,-1.127340328,-0.732681166,67.92605407,-73.42821742,65.10436878,33.81935838,38.93464729,2.504434405,1.26664011,0.596554608,2.715225739,1.19455261,2.926642581,1.468531636,1.997126638,2.334889076,1.95480514,2.39571365,1.999000398,1.469387392,3.021748194,3.178657305,0.228885605
227,5882,5882,1.28587347,-0.607645865,1.594558639,0.475203398,-1.054234974,-1.392751857,-1.10742324,0.022915818,-0.704610806,0.496123212,1.980821306,0.621289277,-22.13944149,36.85949214,13.02445082,-0.114911188,-20.00691577,1.184012654,0.679820523,3.031772073,0.061107319,0.797721439,1.836908448,2.019366442,1.851594761,0.462949403,2.102106427,0.998962383,0.816425362,2.316568488,1.883573605,1.888005643,0.10464732
228,4429,4429,0.139056151,1.261457439,1.157308247,-0.225846238,2.429568002,1.713489462,1.91474968,-0.810640791,-0.173736965,0.068252161,-0.531200043,-0.131586206,71.88609453,-42.86958173,41.68620075,-18.59849583,-58.96137413,2.017888715,1.182584012,1.239340187,2.443229999,2.157588635,1.163420378,1.896938274,1.556057995,1.653977716,2.890004324,1.411198025,1.061452732,2.280650379,1.258718416,1.528586563,0.098187008
229,4898,4898,-1.740388768,1.509411614,1.523106465,0.842932558,1.53329725,0.282198305,-1.524398114,0.558881761,-1.161693916,-1.251794484,1.044082694,-0.493343704,34.39091476,31.24712652,-4.004276879,-34.82770865,-14.5890279,2.579065769,2.263100183,0.649844587,2.672787439,2.333027555,2.277863753,1.295182461,1.269751837,2.713293121,0.606651121,2.403144818,2.419242348,1.913454312,1.948093974,2.545038254,0.861516181
230,6724,6724,-0.562700391,1.88713001,2.988963476,-2.292483414,-0.629419531,-0.788660431,-1.902035222,0.034366798,0.636251449,1.128291337,0.892298074,-0.5900694,-71.69599709,-0.663098413,68.81451752,69.63768394,9.650229748,2.546132126,1.78880964,-0.127890408,2.482868716,1.657818415,0.721714076,2.346478815,0.415032964,0.535259944,2.545378757,1.712363929,2.41536327,1.464670087,1.271505823,1.461559992,-0.298879999
231,3409,3409,-1.674157849,2.118158299,-1.239787243,-0.037089653,0.76166528,0.705184731,-0.96018945,-2.392459916,-0.200702865,1.141314843,-2.67873043,-2.0246722,58.28648656,61.21540177,-54.50636338,58.16990912,15.62539959,1.80703252,0.475510152,2.29644884,2.196448228,-0.038138341,1.429819432,-0.45946616,-0.471189363,0.52405985,1.284864745,3.00625395,0.849402396,1.304680025,2.158209452,1.559388686,0.723547041
232,5242,5242,0.111795356,-1.902105516,1.579846275,-0.59018744,-0.865040328,1.782879742,-1.10490672,-1.374582152,-1.632899766,0.490004094,1.806260818,-1.708565123,11.04095142,20.89889723,-66.36182898,50.02868839,46.30805999,1.429259753,1.488254742,0.430471342,1.265344515,1.902912055,1.167096762,1.825673038,1.096265466,0.884988658,0.398477997,1.512102175,2.835544248,1.338157717,2.895007396,2.400585793,0.752584935
233,3736,3736,-1.911946904,-0.238824302,-0.905625325,1.073539887,-0.934018119,-1.006398564,0.341904886,-1.07170343,2.281285223,2.147922338,-1.579851131,0.375634032,-32.99257451,48.9671699,8.307794769,63.89532067,39.53200215,1.123273587,0.954069582,0.683524046,2.549317267,1.403706237,2.470346754,1.484138225,1.149854884,2.133183288,1.508261554,1.87430744,0.961290403,1.545258902,2.886047026,2.533878478,-0.193709035
234,4468,4468,0.606208909,1.407973831,-1.41727999,1.147291053,-1.188136766,2.814269774,0.44770383,-0.934255542,-2.74620688,0.946699334,2.73256633,-1.955100625,29.1571019,-58.46045054,-68.52947329,-25.21229223,-6.141530792,0.67206475,2.337291837,2.118009972,1.660668416,1.487855456,1.080220494,1.554427078,2.146581576,2.506959219,2.969597994,1.040268159,1.916948135,1.225364849,1.450953601,0.489988674,-0.892940651
235,3616,3616,-0.801766771,0.411462621,1.860687594,-1.384321438,1.061413225,-1.617673341,0.591057688,0.501626598,0.371683537,1.853601718,-0.183768594,0.530487825,62.08336076,41.11473384,6.635608448,12.96442278,60.60816219,1.840783224,0.760650382,0.551065441,1.108084088,1.299043255,0.76346663,0.707685898,1.701571656,1.579458735,0.448433409,1.589766435,0.274094268,1.761298125,2.167380239,0.470513869,1.1408098
236,3491,3491,-2.392477692,-1.022356788,1.757155143,1.510288276,-2.069113591,-0.77467512,2.837232413,-1.478718937,1.039872496,0.71200849,0.259093883,-1.523466041,-42.68665831,-69.89554358,33.70205368,42.71091679,-55.05197785,1.987327658,2.324324987,2.061436952,0.59414199,0.990336244,1.730412122,0.254377559,0.893700027,2.695156761,-0.304009374,3.647553656,0.213899709,1.112530423,1.862825117,2.036781299,-0.174592085
237,1261,1261,-0.118758886,-0.054310594,2.015263622,0.20750012,2.225665554,-0.487726721,1.928374785,-0.987855696,-2.326179094,1.082791419,-0.330936406,-0.353765005,13.88126319,21.43397519,61.1516211,40.81968831,-12.50731885,2.882759157,1.683814674,2.055169947,0.468079359,1.73427973,2.05041763,1.732321773,1.520619419,1.171228157,3.072249683,1.689222838,2.002329354,1.623387407,2.987016676,1.669255446,0.117164717
238,5602,5602,2.531778935,1.417452191,0.796711,1.481178798,-0.838677154,-1.823372379,1.086193775,0.881996684,1.310204872,-0.418837815,-0.23812742,1.113666598,65.06252313,14.41944502,-26.54344323,52.23213517,11.05424002,1.696550546,2.600299146,3.370527327,0.265101828,0.965096545,3.089505589,2.182189273,1.972965203,-0.452182816,1.963355359,1.898007615,0.858156411,1.742523037,1.592715855,1.158108466,-1.352553975
239,4878,4878,0.021014623,-2.27058787,-1.646858477,0.062474013,2.777711066,1.204408617,-0.212449459,2.883891299,1.027801009,-0.129525533,1.956303834,1.263712788,-71.52788779,-15.36842867,-40.58126243,-39.89888494,11.50787855,0.920375625,1.37969576,0.603568858,2.308875803,2.735018863,2.163544975,2.256440918,1.274038938,1.366710273,2.417298152,1.098668516,2.643457947,1.470287656,2.625657884,1.07003532,0.110913929
